!!!!SEGMENT: pl-cz--d-iii-30--005_elsner-jozef--missa-in-c-op-26-benedictus.krn
!!!cenid: 18xx:6
!!!COM: Elsner, Józef
!!!COM-rismID: pe30000957
!!!CDT: 1769/06/01-1854/04/18
!!!CNT: Polish
!!!OPR: Missa in C op. 26
!!!OTL: Benedictus
!!!OMV: 005
!!!PDT: 1820
!!!AGN: Sacred; Mass
!!!SMS-siglum: PL-CZ
!!!SMS-shelfmark: D III-30
!!!SMS-shelfwork: 001-005 M
!!!NIFC-rismSourceID:
!!!NIFC-rismChildID:
!!!NIFC-islandoraID:
!!!URL-pdf-islandora:
!!!URL-scan:
!!!ONB-nifc:
!!!OMD: Andantino
!!!AIN: 1 alto 1 bass 1 organ 1 soprn 1 tenor 1 viola 2 violn
!!!key:
**kern	**kern	**kern	**kern	**dynam	**kern	**dynam	**kern	**text	**kern	**text	**kern	**text	**kern	**text
*part8	*part8	*part7	*part6	*part6	*part5	*part5	*part4	*part4	*part3	*part3	*part2	*part2	*part1	*part1
*staff9	*staff8	*staff7	*staff6	*	*staff5	*	*staff4	*staff4	*staff3	*staff3	*staff2	*staff2	*staff1	*staff1
*Iorgan	*Iempty	*Iviola	*Ivioln	*	*Ivioln	*	*Ibass	*	*Itenor	*	*Ialto	*	*Isoprn	*
*I"ORGANO	*	*I"VIOLA	*I"VIOLINO II	*	*I"VIOLINO PRIMO	*	*I"BASSO	*	*I"TENORE	*	*I"ALTO	*	*I"SOPRANO	*
*clefF4	*clefG2	*clefC3	*clefG2	*	*clefG2	*	*clefF4	*	*clefC4	*	*clefC3	*	*clefC1	*
*k[b-]	*k[b-]	*k[b-]	*k[b-]	*	*k[b-]	*	*k[b-]	*	*k[b-]	*	*k[b-]	*	*k[b-]	*
*F:	*F:	*	*F:	*	*F:	*	*F:	*	*	*	*F:	*	*F:	*
*M2/4	*M2/4	*M2/4	*M2/4	*	*M2/4	*	*M2/4	*	*M2/4	*	*M2/4	*	*M2/4	*
=1	=1	=1	=1	=1	=1	=1	=1	=1	=1	=1	=1	=1	=1	=1
!	!	!LO:TX:i:t=Andantino	!LO:TX:i:t=Andantino	!	!LO:TX:i:t=Andante.	!	!LO:TX:i:t=Andantino.	!	!LO:TX:i:t=Andantino.	!	!LO:TX:i:t=Andantino.	!	!LO:TX:i:t=Andantino.	!
2r	8ryy	8ryy	8ryy	.	8ryy	.	8ryy	.	8ryy	.	8ryy	.	8ryy	.
.	(>8cc\	8r	8r	.	8r	.	8r	.	8r	.	8r	.	8r	.
.	16cc\LL	4r	4r	.	4r	.	4r	.	4r	.	4r	.	4r	.
.	16ff\	.	.	.	.	.	.	.	.	.	.	.	.	.
.	16a/	.	.	.	.	.	.	.	.	.	.	.	.	.
.	16dd\JJ)	.	.	.	.	.	.	.	.	.	.	.	.	.
=2	=2	=2	=2	=2	=2	=2	=2	=2	=2	=2	=2	=2	=2	=2
*^	*	*	*	*	*	*	*	*	*	*	*	*	*	*
[4c/	8r	(>4.cc\	2r	2r	.	2r	.	2r	.	2r	.	2r	.	2r	.
.	8C\L 8E\	.	.	.	.	.	.	.	.	.	.	.	.	.	.
4c/]	8D\ 8F\	.	.	.	.	.	.	.	.	.	.	.	.	.	.
.	8E\J 8G\	16cc\LL	.	.	.	.	.	.	.	.	.	.	.	.	.
.	.	[16b-\JJ	.	.	.	.	.	.	.	.	.	.	.	.	.
=3	=3	=3	=3	=3	=3	=3	=3	=3	=3	=3	=3	=3	=3	=3	=3
4c/	4F\	32b-\LLL])	2r	2r	.	2r	.	2r	.	2r	.	2r	.	2r	.
.	.	32a/	.	.	.	.	.	.	.	.	.	.	.	.	.
.	.	32g#X/	.	.	.	.	.	.	.	.	.	.	.	.	.
.	.	32a/JJJ)	.	.	.	.	.	.	.	.	.	.	.	.	.
.	.	(>16ff\LL	.	.	.	.	.	.	.	.	.	.	.	.	.
.	.	16ee\JJ	.	.	.	.	.	.	.	.	.	.	.	.	.
4r	4ryy	16dd\LL	.	.	.	.	.	.	.	.	.	.	.	.	.
.	.	16cc\	.	.	.	.	.	.	.	.	.	.	.	.	.
.	.	16b-\	.	.	.	.	.	.	.	.	.	.	.	.	.
.	.	16a/JJ)	.	.	.	.	.	.	.	.	.	.	.	.	.
*v	*v	*	*	*	*	*	*	*	*	*	*	*	*	*	*
=4	=4	=4	=4	=4	=4	=4	=4	=4	=4	=4	=4	=4	=4	=4
16BB-/LL	(>8g/	2r	2r	.	2r	.	2r	.	2r	.	2r	.	2r	.
16D\	.	.	.	.	.	.	.	.	.	.	.	.	.	.
16G\	8b-\	.	.	.	.	.	.	.	.	.	.	.	.	.
16D\JJ	.	.	.	.	.	.	.	.	.	.	.	.	.	.
8BB-/	16b-\LL	.	.	.	.	.	.	.	.	.	.	.	.	.
.	16dd\	.	.	.	.	.	.	.	.	.	.	.	.	.
8r	16g/)	.	.	.	.	.	.	.	.	.	.	.	.	.
!	!LO:SIC:v= łuk niejednoznaczny	!	!	!	!	!	!	!	!	!	!	!	!	!
.	(>32gg\L	.	.	.	.	.	.	.	.	.	.	.	.	.
.	32ff\JJJ)	.	.	.	.	.	.	.	.	.	.	.	.	.
=5	=5	=5	=5	=5	=5	=5	=5	=5	=5	=5	=5	=5	=5	=5
!LO:PB:g+original	!	!	!	!	!	!	!	!	!	!	!	!	!	!
*^	*	*	*	*	*	*	*	*	*	*	*	*	*	*
4C/	16C\LL	16cc\LL	2r	2r	.	2r	.	2r	.	2r	.	2r	.	2r	.
.	16F\	32aa\L	.	.	.	.	.	.	.	.	.	.	.	.	.
.	.	32ff\JJJ	.	.	.	.	.	.	.	.	.	.	.	.	.
.	16A\	8cc\	.	.	.	.	.	.	.	.	.	.	.	.	.
.	16F\JJ	.	.	.	.	.	.	.	.	.	.	.	.	.	.
4C/	16C\LL	16ccc\LL	.	.	.	.	.	.	.	.	.	.	.	.	.
.	16E\	16bbn\JJ	.	.	.	.	.	.	.	.	.	.	.	.	.
.	16G\	(>24bb-X\LL	.	.	.	.	.	.	.	.	.	.	.	.	.
.	.	24aa\	.	.	.	.	.	.	.	.	.	.	.	.	.
.	16E\JJ	.	.	.	.	.	.	.	.	.	.	.	.	.	.
.	.	24gg\JJ)	.	.	.	.	.	.	.	.	.	.	.	.	.
*v	*v	*	*	*	*	*	*	*	*	*	*	*	*	*	*
=6	=6	=6	=6	=6	=6	=6	=6	=6	=6	=6	=6	=6	=6	=6
!	!	!	!	!LO:DY:b	!	!	!	!	!	!	!	!	!	!
(16F\LL	(>16ff\LL	[2F/	4A/	pp	4c/	pp	2r	.	2r	.	2r	.	2r	.
16A\	16cc\	.	.	.	.	.	.	.	.	.	.	.	.	.
16c\	32aa\L	.	.	.	.	.	.	.	.	.	.	.	.	.
.	32gg\	.	.	.	.	.	.	.	.	.	.	.	.	.
16A\JJ	32ff\	.	.	.	.	.	.	.	.	.	.	.	.	.
.	32ee\JJJ)	.	.	.	.	.	.	.	.	.	.	.	.	.
16F\LL	32dd\LLL	.	4B-/	.	4d/	.	.	.	.	.	.	.	.	.
.	32ddd\	.	.	.	.	.	.	.	.	.	.	.	.	.
16B-\	32bb-\	.	.	.	.	.	.	.	.	.	.	.	.	.
.	32ff\JJJ	.	.	.	.	.	.	.	.	.	.	.	.	.
16d\	32dd\LLL	.	.	.	.	.	.	.	.	.	.	.	.	.
.	32bb-\	.	.	.	.	.	.	.	.	.	.	.	.	.
16B-\JJ)	32ff\	.	.	.	.	.	.	.	.	.	.	.	.	.
.	32dd\JJJ	.	.	.	.	.	.	.	.	.	.	.	.	.
=7	=7	=7	=7	=7	=7	=7	=7	=7	=7	=7	=7	=7	=7	=7
16F\LL	32r	2F/]	4A/	.	4c/	.	2r	.	2r	.	2r	.	2r	.
.	(>32ccc\LLL	.	.	.	.	.	.	.	.	.	.	.	.	.
16A\	32aa\	.	.	.	.	.	.	.	.	.	.	.	.	.
.	32ff\JJJ	.	.	.	.	.	.	.	.	.	.	.	.	.
16c\	32cc\LLL	.	.	.	.	.	.	.	.	.	.	.	.	.
.	32aa\	.	.	.	.	.	.	.	.	.	.	.	.	.
16A\JJ	32ff\	.	.	.	.	.	.	.	.	.	.	.	.	.
.	32cc\JJJ	.	.	.	.	.	.	.	.	.	.	.	.	.
16F\LL	32r	.	4B-/	.	4d/	.	.	.	.	.	.	.	.	.
.	32ddd\LLL	.	.	.	.	.	.	.	.	.	.	.	.	.
16B-\	32bb-\	.	.	.	.	.	.	.	.	.	.	.	.	.
.	32ff\JJJ	.	.	.	.	.	.	.	.	.	.	.	.	.
16d\	32dd\LLL	.	.	.	.	.	.	.	.	.	.	.	.	.
.	32bb-\	.	.	.	.	.	.	.	.	.	.	.	.	.
16B-\JJ	32ff\	.	.	.	.	.	.	.	.	.	.	.	.	.
.	32dd\JJJ)	.	.	.	.	.	.	.	.	.	.	.	.	.
=8	=8	=8	=8	=8	=8	=8	=8	=8	=8	=8	=8	=8	=8	=8
16F\LL	32r	[2F/	2A/	.	2c/	.	2r	.	2r	.	2r	.	2r	.
.	(>32ccc\LLL	.	.	.	.	.	.	.	.	.	.	.	.	.
16A\	32aa\	.	.	.	.	.	.	.	.	.	.	.	.	.
.	32ff\JJJ	.	.	.	.	.	.	.	.	.	.	.	.	.
16c\	32cc\LLL	.	.	.	.	.	.	.	.	.	.	.	.	.
.	32aa\	.	.	.	.	.	.	.	.	.	.	.	.	.
16A\JJ	32ff\	.	.	.	.	.	.	.	.	.	.	.	.	.
.	32cc\JJJ	.	.	.	.	.	.	.	.	.	.	.	.	.
!LO:PB:g+original	!	!	!	!	!	!	!	!	!	!	!	!	!	!
16E-X\LL	16a\LL	.	.	.	.	.	.	.	.	.	.	.	.	.
16F\	32fff\L	.	.	.	.	.	.	.	.	.	.	.	.	.
.	32eee-X\JJJ	.	.	.	.	.	.	.	.	.	.	.	.	.
16c\	32ddd\LLL	.	.	.	.	.	.	.	.	.	.	.	.	.
.	32ccc\	.	.	.	.	.	.	.	.	.	.	.	.	.
16F\JJ	32bb-\	.	.	.	.	.	.	.	.	.	.	.	.	.
.	32aa\JJJ)	.	.	.	.	.	.	.	.	.	.	.	.	.
=9	=9	=9	=9	=9	=9	=9	=9	=9	=9	=9	=9	=9	=9	=9
16D\LL	8.bb-\L	4F/]	4B-/	.	2f/	.	2r	.	2r	.	2r	.	2r	.
16F\	.	.	.	.	.	.	.	.	.	.	.	.	.	.
16B-\	.	.	.	.	.	.	.	.	.	.	.	.	.	.
!	!LO:N:vis=16	!	!	!	!	!	!	!	!	!	!	!	!	!
16F\JJ	32aa\LL	.	.	.	.	.	.	.	.	.	.	.	.	.
!	!LO:N:vis=16	!	!	!	!	!	!	!	!	!	!	!	!	!
.	32bb-\JJJ	.	.	.	.	.	.	.	.	.	.	.	.	.
.	16qqccc/LL	.	.	.	.	.	.	.	.	.	.	.	.	.
.	16qqbb-/JJ	.	.	.	.	.	.	.	.	.	.	.	.	.
16D-X\LL	4bbn\t	4D-X/	4Bn/	.	.	.	.	.	.	.	.	.	.	.
16F\	.	.	.	.	.	.	.	.	.	.	.	.	.	.
16A-X\	.	.	.	.	.	.	.	.	.	.	.	.	.	.
16F\JJ	.	.	.	.	.	.	.	.	.	.	.	.	.	.
.	16qqaa/LL	.	.	.	.	.	.	.	.	.	.	.	.	.
.	16qqbbn/JJ	.	.	.	.	.	.	.	.	.	.	.	.	.
=10	=10	=10	=10	=10	=10	=10	=10	=10	=10	=10	=10	=10	=10	=10
16C/LL	16ccc\LL	4C/	8r	.	8r	.	2r	.	2r	.	2r	.	2r	.
16F\	16aa\J	.	.	.	.	.	.	.	.	.	.	.	.	.
16An\	[8fff\J	.	8c/L	.	8a/L	.	.	.	.	.	.	.	.	.
16F\JJ	.	.	.	.	.	.	.	.	.	.	.	.	.	.
16C/LL	32fff\LLL]	4r	8c/	.	8a/	.	.	.	.	.	.	.	.	.
.	32eee\	.	.	.	.	.	.	.	.	.	.	.	.	.
16F\	32ddd\	.	.	.	.	.	.	.	.	.	.	.	.	.
.	32ccc\JJJ	.	.	.	.	.	.	.	.	.	.	.	.	.
16A\	32bb-\LLL	.	8c/J	.	8a/J	.	.	.	.	.	.	.	.	.
.	32aa\	.	.	.	.	.	.	.	.	.	.	.	.	.
16F\JJ	32gg\	.	.	.	.	.	.	.	.	.	.	.	.	.
.	32ff\JJJ	.	.	.	.	.	.	.	.	.	.	.	.	.
=11	=11	=11	=11	=11	=11	=11	=11	=11	=11	=11	=11	=11	=11	=11
16C/LL	32ee\LLL	4C/	8r	.	8r	.	2r	.	2r	.	2r	.	2r	.
.	32gg\	.	.	.	.	.	.	.	.	.	.	.	.	.
16G\	32bb-\	.	.	.	.	.	.	.	.	.	.	.	.	.
.	32ddd\JJJ	.	.	.	.	.	.	.	.	.	.	.	.	.
16B-\	(>4ccc\	.	8B-/L	.	8g/L	.	.	.	.	.	.	.	.	.
16G\JJ	.	.	.	.	.	.	.	.	.	.	.	.	.	.
16C/LL	.	4r	8B-/	.	8g/	.	.	.	.	.	.	.	.	.
16G\	.	.	.	.	.	.	.	.	.	.	.	.	.	.
16B-\	8ee\)	.	8B-/J	.	8g/J	.	.	.	.	.	.	.	.	.
16G\JJ	.	.	.	.	.	.	.	.	.	.	.	.	.	.
=12	=12	=12	=12	=12	=12	=12	=12	=12	=12	=12	=12	=12	=12	=12
!	!	!LO:PB:g=original	!	!	!LO:PB:g=original	!	!	!	!	!	!	!	!	!
8F\	16dd\LL 16ff\	8F/	8A/	.	8f/	.	2r	.	2r	.	2r	.	2r	.
.	16ff\ 16aa\	.	.	.	.	.	.	.	.	.	.	.	.	.
8r	16ee\ 16gg\	8r	8r	.	8r	.	.	.	.	.	.	.	.	.
.	16dd\JJ 16ff\	.	.	.	.	.	.	.	.	.	.	.	.	.
8C/	16cc\LL 16ee\	8C/	8c/	.	8g/	.	.	.	.	.	.	.	.	.
.	16b-\ 16dd\	.	.	.	.	.	.	.	.	.	.	.	.	.
8r	16a/ 16cc/	8r	8r	.	8r	.	.	.	.	.	.	.	.	.
.	16g/JJ 16b-/	.	.	.	.	.	.	.	.	.	.	.	.	.
=13	=13	=13	=13	=13	=13	=13	=13	=13	=13	=13	=13	=13	=13	=13
!LO:PB:g=original	!	!	!LO:PB:g=original	!	!	!	!	!	!	!	!	!	!	!
4F\	4f/ 4a/	4F/	4f/	.	8a/	.	2r	.	2r	.	2r	.	8r	.
!	!	!	!	!	!	!	!	!	!	!	!	!	!LO:TX:a:i:t=solo	!
.	.	.	.	.	[8cc\	.	.	.	.	.	.	.	[8cc\	Be-
!	!	!	!	!	!	!LO:DY:b	!	!	!	!	!	!	!	!
4r	4r	4r	4r	.	16cc\LL]	p	.	.	.	.	.	.	(>16cc\LL]	.
.	.	.	.	.	16ff\	.	.	.	.	.	.	.	16ff\	.
.	.	.	.	.	16a/	.	.	.	.	.	.	.	16a\JJ)	.
.	.	.	.	.	32dd\L	.	.	.	.	.	.	.	32dd\LLL	.
.	.	.	.	.	32cc\JJJ	.	.	.	.	.	.	.	32cc\JJJ	-ne-
=14	=14	=14	=14	=14	=14	=14	=14	=14	=14	=14	=14	=14	=14	=14
!	!	!	!	!	!	!	!LO:TX:a:i:t=solo	!	!LO:TX:a:i:t=solo	!	!	!	!	!
4C/	2r	8r	8r	.	4.cc\	.	4r	.	8r	.	8r	.	(>4.cc\	-dic-
!	!	!	!	!	!	!	!	!	!	!	!LO:TX:a:i:t=solo	!	!	!
.	.	8c\L	8e/L	.	.	.	.	.	8c\	qui	8e\	qui	.	.
4r	.	8d\	8f/	.	.	.	8r	.	8d\L	ve-	8f\L	ve-	.	.
!	!	!	!	!	!	!	!	!	!	!	!	!	!	!
.	.	8e\J	8g/J	.	16cc\LL	.	16C/	Be-	8e\J	.	8g\J	.	16cc\LL	.
.	.	.	.	.	16b-\JJ	.	16C/	-ne-	.	.	.	.	16b-\JJ)	.
=15	=15	=15	=15	=15	=15	=15	=15	=15	=15	=15	=15	=15	=15	=15
4F\	2r	8f\	4f/	.	4a/	.	16.F\LL	-dic-	8f\	-nit	4f\	-nit	4a\	-tus
.	.	.	.	.	.	.	32A\JJk	.	.	.	.	.	.	.
.	.	[8c\	.	.	.	.	4F\	-tus	(>8c\	Be-	.	.	.	.
4r	.	16c\LL]	4r	.	4r	.	.	.	16c\LL	.	4r	.	4r	.
.	.	16f\	.	.	.	.	.	.	16f\	.	.	.	.	.
.	.	16A/	.	.	.	.	8r	.	16A\JJ	.	.	.	.	.
.	.	32d\L	.	.	.	.	.	.	32d\LLL	-ne-	.	.	.	.
.	.	32c\JJJ	.	.	.	.	.	.	32c\JJJ)	.	.	.	.	.
=16	=16	=16	=16	=16	=16	=16	=16	=16	=16	=16	=16	=16	=16	=16
!	!	!	!	!	!	!	!	!	!LO:PB:g=original	!	!	!	!	!
4C/	2r	(<4.c/	8r	.	8r	.	4r	.	4.c\	-dic-	8r	.	8r	.
.	.	.	8c/L	.	8e/L	.	.	.	.	.	8c\	qui	8e/	qui
4r	.	.	8d/	.	8f/	.	8r	.	.	.	8d\L	ve-	8f/L	ve-
.	.	16c\LL	8e/J	.	8g/J	.	16C/	Be-	16c\LL	.	8e\J	.	8g\J	.
.	.	16B-/JJ)	.	.	.	.	16C/	-ne-	16B-\JJ	.	.	.	.	.
=17	=17	=17	=17	=17	=17	=17	=17	=17	=17	=17	=17	=17	=17	=17
!	!	!	!	!	!	!	!	!LO:PB:g=original	!	!	!LO:PB:g=original	!	!LO:PB:g=original	!
4F\	2r	8A/	2f/	.	2a/	.	16F\LL	-dic-	4A\	-tus	4f\	-nit	4a\	-nit
.	.	.	.	.	.	.	16A\JJ	.	.	.	.	.	.	.
.	.	4c/	.	.	.	.	4c\	-tus	.	.	.	.	.	.
4A\	.	.	.	.	.	.	.	.	4r	.	4r	.	4r	.
.	.	8c/	.	.	.	.	8A\	qui	.	.	.	.	.	.
=18	=18	=18	=18	=18	=18	=18	=18	=18	=18	=18	=18	=18	=18	=18
8B-\	2r	2c/	8e/	.	8r	.	(>32c\LLL	ve-	4r	.	4r	.	4r	.
.	.	.	.	.	.	.	32B-\	.	.	.	.	.	.	.
.	.	.	.	.	.	.	32G\	.	.	.	.	.	.	.
.	.	.	.	.	.	.	32E\JJJ)	.	.	.	.	.	.	.
8r	.	.	8r	.	8g/	.	4C/	-nit	.	.	.	.	.	.
8E\	.	.	8g/	.	8r	.	.	.	8r	.	8r	.	8r	.
8r	.	.	8r	.	8b-/	.	8E\	qui	8c\	in	8g\	in	(>16cc\LL	in
.	.	.	.	.	.	.	.	.	.	.	.	.	16b-\JJ)	.
=19	=19	=19	=19	=19	=19	=19	=19	=19	=19	=19	=19	=19	=19	=19
!	!	!LO:PB:g=original	!	!	!LO:PB:g=original	!	!	!	!	!	!	!	!	!
4F\	2r	8c/	2f/	.	2a/	.	16F\LL	ve-	8.c\	no-	8.f\	no-	8.a\	no-
.	.	.	.	.	.	.	16A\JJ	.	.	.	.	.	.	.
.	.	4c/	.	.	.	.	4c\	-nit	.	.	.	.	.	.
.	.	.	.	.	.	.	.	.	16c\	-mi-	16f\	-mi-	16a\	-mi-
4A\	.	.	.	.	.	.	.	.	8c\	-ne	8f\	-ne	8a\	-ne
.	.	8c/	.	.	.	.	8A\	qui	8r	.	8r	.	8r	.
=20	=20	=20	=20	=20	=20	=20	=20	=20	=20	=20	=20	=20	=20	=20
8B-\	2r	2c/	8r	.	8r	.	32c\LLL	ve-	4r	.	4r	.	4r	.
.	.	.	.	.	.	.	32B-\	.	.	.	.	.	.	.
.	.	.	.	.	.	.	32G\	.	.	.	.	.	.	.
.	.	.	.	.	.	.	32E\JJJ	.	.	.	.	.	.	.
8r	.	.	8e/	.	8g/	.	4C/	-nit	.	.	.	.	.	.
8E\	.	.	8r	.	8r	.	.	.	8r	.	8r	.	8r	.
8r	.	.	8g/	.	8b-\	.	8E\	in	8c\	in	8g\	in	16cc\LL	in
.	.	.	.	.	.	.	.	.	.	.	.	.	16b-\JJ	.
=21	=21	=21	=21	=21	=21	=21	=21	=21	=21	=21	=21	=21	=21	=21
4F\	2r	4c\	8r	.	8r	.	4F\	no-	8.c\	no-	8f\	no-	8a\	no-
.	.	.	8f/	.	8a/	.	.	.	.	.	16f\	-mi-	16a\	-mi-
.	.	.	.	.	.	.	.	.	16A\	-mi-	16f\	-ne	16a\	-ne
4D\	.	4d\	16a/LL	.	(>16ff\LL	.	8D\	-mi-	8A\	-ne	16a\LL	Do-	16ff\LL	Do-
.	.	.	16g/	.	16ee\	.	.	.	.	.	16g\JJ	.	16ee\JJ	.
.	.	.	16f/	.	16dd\	.	8D\	-ne	8r	.	16f\LL	-mi-	16dd\LL	-mi-
.	.	.	16e/JJ	.	16cc\JJ)	.	.	.	.	.	16e\JJ	.	16cc\JJ	.
=22	=22	=22	=22	=22	=22	=22	=22	=22	=22	=22	=22	=22	=22	=22
!	!	!	!	!	!	!	!	!	!LO:PB:g=original	!	!	!	!	!
8G\	2r	8G/	8r	.	8r	.	4.G\	Do-	4r	.	4d\	-ni	8bn\	-ni
8r	.	8r	8d/	.	8bn\	.	.	.	.	.	.	.	8dd\	in
8BBn/	.	8Bn/	8r	.	8r	.	.	.	8r	.	4r	.	16dd\LL	no-
.	.	.	.	.	.	.	.	.	.	.	.	.	16b\JJ	.
8r	.	8r	8f/	.	8dd\	.	8BBn/	-mi-	8G/	in	.	.	16g\	-mi-
.	.	.	.	.	.	.	.	.	.	.	.	.	16f\	-ne
=23	=23	=23	=23	=23	=23	=23	=23	=23	=23	=23	=23	=23	=23	=23
!	!LO:PB:g=original	!	!	!	!	!	!	!	!	!	!LO:PB:g=original	!	!LO:PB:g=original	!
8C/	2r	8c/	8r	.	8r	.	4C/	-ni	(>4.G/	no-	8r	.	16.f/	Do-
!	!	!	!	!	!	!	!	!	!	!	!	!	!LO:TX:a:t=problem: niejednoznaczna wysokość - f lub e	!
.	.	.	.	.	.	.	.	.	.	.	.	.	32f/	-mi-
8r	.	8r	8e/	.	8cc\	.	.	.	.	.	8cc\	in	8e/	-ni
8E\	.	8E/	8r	.	8r	.	4E\	in	.	.	16cc\LL	no-	8r	.
.	.	.	.	.	.	.	.	.	.	.	16g\JJ	.	.	.
8r	.	8r	8c/	.	8g/	.	.	.	8c\)	.	16f\	-mi-	8g\	in
.	.	.	.	.	.	.	.	.	.	.	16e\	-ne	.	.
=24	=24	=24	=24	=24	=24	=24	=24	=24	=24	=24	=24	=24	=24	=24
8F\L	2r	8F/L	8r	.	8r	.	8F\	no-	8c\	-mi-	16.e\	Do-	8a\	no-
.	.	.	.	.	.	.	.	.	.	.	32d\	-mi-	.	.
8D\	.	8D/	8f/	.	8a/	.	16D\	-mi-	8f\	-ne	8d\	-ni	16a\	-mi-
!	!	!	!	!	!	!	!LO:PB:g=original	!	!	!	!	!	!	!
.	.	.	.	.	.	.	16D\	-ne	.	.	.	.	16a\	-ne
8G\	.	8G/	16r	.	16r	.	8G\	Do-	8e\	Do-	8e\	Do-	8.g\	Do-
.	.	.	16e/	.	16cc\	.	.	.	.	.	.	.	.	.
!LO:TX:t=P:problem=mixed beam	!	!	!	!	!	!	!	!	!	!	!	!	!	!
8GG/J	.	8G/J	16r	.	16r	.	8G\	-mi-	8d\	-mi-	8f\	-mi-	.	.
.	.	.	16d/	.	16bn\	.	.	.	.	.	.	.	32a\LLL	-mi-
.	.	.	.	.	.	.	.	.	.	.	.	.	32bn\JJJ	.
=25	=25	=25	=25	=25	=25	=25	=25	=25	=25	=25	=25	=25	=25	=25
!LO:PB:g=original	!	!	!	!	!	!	!	!	!	!	!	!	!	!
*	*	*^	*	*	*	*	*	*	*	*	*	*	*	*
!	!	!	!LO:TX:t=P:problem=półnuta na środku taktu	!	!	!	!	!	!	!	!	!	!	!	!
32c\LLL	8r	4G/	2C\	8r	.	8r	.	8C/	-ni	8c\	-ni	8e\	-ni	8cc\	-ni
32C/	.	.	.	.	.	.	.	.	.	.	.	.	.	.	.
32E\	.	.	.	.	.	.	.	.	.	.	.	.	.	.	.
32G\JJJ	.	.	.	.	.	.	.	.	.	.	.	.	.	.	.
16c\	32r	.	.	8e/	.	8cc\	.	16C/	Be-	16G/	Be-	16e\	Be-	16cc\	Be-
.	(>32e/LLL	.	.	.	.	.	.	.	.	.	.	.	.	.	.
16r	32g/	.	.	.	.	.	.	16C/	-ne-	16G/	-ne-	16e\	-ne-	16cc\	-ne-
.	32cc\JJJ	.	.	.	.	.	.	.	.	.	.	.	.	.	.
8r	32ee\LLL	4c/	.	8r	.	8r	.	8C/	-dic-	8G/	-dic-	8e\	-dic-	8cc\	-dic-
.	32g/	.	.	.	.	.	.	.	.	.	.	.	.	.	.
.	32cc\	.	.	.	.	.	.	.	.	.	.	.	.	.	.
.	32ee\JJJ	.	.	.	.	.	.	.	.	.	.	.	.	.	.
*^	*	*	*	*	*	*	*	*	*	*	*	*	*	*	*
8E/ 8G/	8C\	32gg\LLL	.	.	8e/	.	8cc\	.	16C/	-tus	16G/	-tus	16e\	-tus	16cc\	-tus
.	.	32ccc\	.	.	.	.	.	.	.	.	.	.	.	.	.	.
.	.	32gg\	.	.	.	.	.	.	16C/	qui	16G/	qui	16e\	qui	16cc\	qui
.	.	32ee\JJJ)	.	.	.	.	.	.	.	.	.	.	.	.	.	.
=26	=26	=26	=26	=26	=26	=26	=26	=26	=26	=26	=26	=26	=26	=26	=26	=26
!	!	!	!	!LO:TX:t=P:problem=półnuta na środku taktu	!	!	!	!	!	!	!	!	!	!	!	!
4D/ 4F/ 4G/	2C\	(>32gg\LLL	4Bn/	[2C\	8r	.	8r	.	4C/	ve-	4G/	ve-	4f\	ve-	8.dd\L	ve-
.	.	32ff\	.	.	.	.	.	.	.	.	.	.	.	.	.	.
.	.	32dd\	.	.	.	.	.	.	.	.	.	.	.	.	.	.
.	.	32bn\JJJ)	.	.	.	.	.	.	.	.	.	.	.	.	.	.
.	.	32f#X/LLL	.	.	8f/	.	8dd\	.	.	.	.	.	.	.	.	.
.	.	32g/	.	.	.	.	.	.	.	.	.	.	.	.	.	.
.	.	32b\	.	.	.	.	.	.	.	.	.	.	.	.	16bn\Jk	.
.	.	32dd\JJJ	.	.	.	.	.	.	.	.	.	.	.	.	.	.
4E/ 4G/	.	(>32cc/	4c/	.	8r	.	8r	.	8C/	-nit	8G/	-nit	8e\	-nit	8cc\	-nit
.	.	32e/LLL	.	.	.	.	.	.	.	.	.	.	.	.	.	.
.	.	32g/	.	.	.	.	.	.	.	.	.	.	.	.	.	.
.	.	32cc\JJJ	.	.	.	.	.	.	.	.	.	.	.	.	.	.
.	.	32ee\LLL	.	.	8e/	.	8cc\	.	16r	.	16r	.	16r	.	16r	.
.	.	32g/	.	.	.	.	.	.	.	.	.	.	.	.	.	.
.	.	32cc\	.	.	.	.	.	.	16C/	qui	16G/	qui	16e\	qui	16cc\	qui
.	.	32ee\JJJ	.	.	.	.	.	.	.	.	.	.	.	.	.	.
=27	=27	=27	=27	=27	=27	=27	=27	=27	=27	=27	=27	=27	=27	=27	=27	=27
!	!	!	!	!LO:PB:g=original	!	!	!	!	!	!	!LO:PB:g=original	!	!LO:PB:g=original	!	!	!
!	!	!	!	!	!LO:PB:g=original	!	!	!	!	!	!	!	!	!	!	!
4D/ 4F/ 4G/	2C\	32gg\LLL	4Bn/	2C\]	8r	.	8r	.	4C/	ve-	4G/	ve-	4f\	ve-	8.dd\L	ve-
.	.	32ff\	.	.	.	.	.	.	.	.	.	.	.	.	.	.
.	.	32dd\	.	.	.	.	.	.	.	.	.	.	.	.	.	.
.	.	32bn\JJJ	.	.	.	.	.	.	.	.	.	.	.	.	.	.
.	.	32f#X/LLL)	.	.	8f/	.	8dd\	.	.	.	.	.	.	.	.	.
.	.	32g/	.	.	.	.	.	.	.	.	.	.	.	.	.	.
.	.	32b\	.	.	.	.	.	.	.	.	.	.	.	.	16bn\Jk	.
.	.	32dd\JJJ	.	.	.	.	.	.	.	.	.	.	.	.	.	.
4E/ 4G/	.	32cc/	4c/	.	8r	.	8r	.	8C/	-nit	8G/	-nit	8e\	-nit	8cc\	-nit
.	.	32e/LLL	.	.	.	.	.	.	.	.	.	.	.	.	.	.
.	.	32g/	.	.	.	.	.	.	.	.	.	.	.	.	.	.
.	.	32cc\JJJ	.	.	.	.	.	.	.	.	.	.	.	.	.	.
.	.	32ee\LLL	.	.	8e/	.	8cc\	.	16CLL/	in	8c\	in	8g\	in	8ee\	in
.	.	32g/	.	.	.	.	.	.	.	.	.	.	.	.	.	.
.	.	32cc\	.	.	.	.	.	.	16E\JJ	.	.	.	.	.	.	.
.	.	32ee\JJJ	.	.	.	.	.	.	.	.	.	.	.	.	.	.
*v	*v	*	*	*	*	*	*	*	*	*	*	*	*	*	*	*
=28	=28	=28	=28	=28	=28	=28	=28	=28	=28	=28	=28	=28	=28	=28	=28
!	!	!	!	!	!	!	!	!	!	!	!	!	!	!LO:PB:g=original	!
32r	16gg\	2G/	2G\	8r	.	8r	.	8G\	no-	8Bn\	no-	8g\	no-	8dd\	no-
32G\LLL	.	.	.	.	.	.	.	.	.	.	.	.	.	.	.
32Bn\	16r	.	.	.	.	.	.	.	.	.	.	.	.	.	.
32d\JJJ	.	.	.	.	.	.	.	.	.	.	.	.	.	.	.
16g\	32r	.	.	8Bn/	.	8dd\	.	16G\	-mi-	16B\	-mi-	16g\	-mi-	16dd\	-mi-
.	32bn\LLL	.	.	.	.	.	.	.	.	.	.	.	.	.	.
16r	32dd\	.	.	.	.	.	.	16G\	-ne	16B\	-ne	16g\	-ne	16dd\	-ne
.	32gg\JJJ	.	.	.	.	.	.	.	.	.	.	.	.	.	.
!LO:PB:g=original	!	!	!	!	!	!	!	!	!	!	!	!	!	!	!
8r	32bbn\LLL	.	.	8r	.	8r	.	8G\	Do-	(>8.B\	Do-	8g\	Do-	8.dd\L	Do-
.	32dd\	.	.	.	.	.	.	.	.	.	.	.	.	.	.
.	32gg\	.	.	.	.	.	.	.	.	.	.	.	.	.	.
.	32bb\JJJ	.	.	.	.	.	.	.	.	.	.	.	.	.	.
!	!	!	!	!	!	!	!	!LO:TX:a:t=P:problem= niejasność w podłożeniu tekstu	!	!	!	!	!	!	!
32r	16ddd\	.	.	8B/	.	8dd\	.	(>16G\LL	-mi-	.	.	8g\	-mi-	.	.
32GG/LLL	.	.	.	.	.	.	.	.	.	.	.	.	.	.	.
32BB-/	16r	.	.	.	.	.	.	16G\JJ)	.	32c\LLL	.	.	.	32ee\LL	-mi-
32D\JJJ	.	.	.	.	.	.	.	.	.	32d\JJJ)	.	.	.	32ff\JJJ	.
=29	=29	=29	=29	=29	=29	=29	=29	=29	=29	=29	=29	=29	=29	=29	=29
!	!	!	!	!LO:PB:g=original	!	!	!	!	!	!	!	!	!	!	!
*^	*	*	*	*	*	*	*	*	*	*	*	*	*	*	*
!	!	!	!LO:TX:t=P:problem=półnuta na środku taktu	!	!	!	!	!	!	!	!	!	!	!	!	!
32G/LLL	4ryy	8r	4G/	[2C\	8r	.	8r	.	8C/	-ni	8c\	-ni	8g\	-ni	8ee\	-ni
32C/	.	.	.	.	.	.	.	.	.	.	.	.	.	.	.	.
32E/	.	.	.	.	.	.	.	.	.	.	.	.	.	.	.	.
32G/JJJ	.	.	.	.	.	.	.	.	.	.	.	.	.	.	.	.
16c/	.	32r	.	.	8c/	.	8ee\	.	16C/	Be-	16G/	Be-	16e\	Be-	16cc\	Be-
.	.	32e/LLL	.	.	.	.	.	.	.	.	.	.	.	.	.	.
16rEE	.	32g/	.	.	.	.	.	.	16C/	-ne-	16G/	-ne-	16e\	-ne-	16cc\	-ne-
.	.	32cc\JJJ	.	.	.	.	.	.	.	.	.	.	.	.	.	.
8r	8ryy	32ee\LLL	4c/	.	8r	.	8r	.	8C/	-dic-	8G/	-dic-	8e\	-dic-	8cc\	-dic-
.	.	32g/	.	.	.	.	.	.	.	.	.	.	.	.	.	.
.	.	32cc\	.	.	.	.	.	.	.	.	.	.	.	.	.	.
.	.	32ee\JJJ	.	.	.	.	.	.	.	.	.	.	.	.	.	.
8E/ 8G/	8C\	32gg\LLL	.	.	8e/	.	8cc\	.	16C/	-tus	16G/	-tus	16e\	-tus	16cc\	-tus
.	.	32ccc\	.	.	.	.	.	.	.	.	.	.	.	.	.	.
.	.	32gg\	.	.	.	.	.	.	16C/	qui	16G/	qui	16e\	qui	16cc\	qui
.	.	32ee\JJJ	.	.	.	.	.	.	.	.	.	.	.	.	.	.
=30	=30	=30	=30	=30	=30	=30	=30	=30	=30	=30	=30	=30	=30	=30	=30	=30
!	!	!	!	!	!	!	!	!	!LO:PB:g=original	!	!	!	!	!	!	!
4D/ 4F/ 4G/	2C\	32gg\LLL	4Bn/	2C\]	8r	.	8r	.	4C/	ve-	4G/	ve-	4f\	ve-	8.dd\L	ve-
.	.	32ff\	.	.	.	.	.	.	.	.	.	.	.	.	.	.
.	.	32dd\	.	.	.	.	.	.	.	.	.	.	.	.	.	.
.	.	32bn\JJJ	.	.	.	.	.	.	.	.	.	.	.	.	.	.
.	.	32f#X/LLL	.	.	8f/	.	8dd\	.	.	.	.	.	.	.	.	.
.	.	32g/	.	.	.	.	.	.	.	.	.	.	.	.	.	.
.	.	32b\	.	.	.	.	.	.	.	.	.	.	.	.	16bn\Jk	.
.	.	32dd\JJJ	.	.	.	.	.	.	.	.	.	.	.	.	.	.
4E/ 4G/	.	32cc\LLL	4c/	.	8r	.	8r	.	8C/	-nit	8G/	-nit	8e\	-nit	8cc\	-nit
.	.	32e/	.	.	.	.	.	.	.	.	.	.	.	.	.	.
.	.	32g/	.	.	.	.	.	.	.	.	.	.	.	.	.	.
.	.	32cc\JJJ	.	.	.	.	.	.	.	.	.	.	.	.	.	.
.	.	32ee\LLL	.	.	8e/	.	8cc\	.	16r	.	16r	.	16r	.	16r	.
.	.	32g/	.	.	.	.	.	.	.	.	.	.	.	.	.	.
.	.	32cc\	.	.	.	.	.	.	16C/	qui	16G/	qui	16e\	qui	16cc\	qui
.	.	32ee\JJJ	.	.	.	.	.	.	.	.	.	.	.	.	.	.
=31	=31	=31	=31	=31	=31	=31	=31	=31	=31	=31	=31	=31	=31	=31	=31	=31
!	!	!	!LO:TX:t=P:problem=półnuta na środku taktu	!	!	!	!	!	!	!	!	!	!	!	!	!
4D/ 4F/ 4G/	2C\	32gg\LLL	4Bn/	2C\	8r	.	8r	.	4C/	ve-	4G/	ve-	4f\	ve-	8.dd\L	ve-
.	.	32ff\	.	.	.	.	.	.	.	.	.	.	.	.	.	.
.	.	32dd\	.	.	.	.	.	.	.	.	.	.	.	.	.	.
.	.	32bn\JJJ	.	.	.	.	.	.	.	.	.	.	.	.	.	.
.	.	16g/	.	.	8f/	.	8dd\	.	.	.	.	.	.	.	.	.
.	.	16r	.	.	.	.	.	.	.	.	.	.	.	.	16bn\Jk	.
4E/ 4G/	.	32r	4c/	.	8r	.	8r	.	8C/	-nit	8G/	-nit	8e\	-nit	8cc\	-nit
.	.	32e/LLL	.	.	.	.	.	.	.	.	.	.	.	.	.	.
.	.	32g/	.	.	.	.	.	.	.	.	.	.	.	.	.	.
.	.	32cc\JJJ	.	.	.	.	.	.	.	.	.	.	.	.	.	.
.	.	32ee\LLL	.	.	8e/	.	8cc\	.	16CLL/	in	8c\	in	8g\	in	8ee\	in
.	.	32g/	.	.	.	.	.	.	.	.	.	.	.	.	.	.
.	.	32cc\	.	.	.	.	.	.	16E\JJ	.	.	.	.	.	.	.
.	.	32ee\JJJ	.	.	.	.	.	.	.	.	.	.	.	.	.	.
*v	*v	*	*v	*v	*	*	*	*	*	*	*	*	*	*	*	*
=32	=32	=32	=32	=32	=32	=32	=32	=32	=32	=32	=32	=32	=32	=32
!	!	!	!	!	!	!	!	!	!LO:PB:g=original	!	!	!	!	!
!	!	!	!	!	!LO:PB:g=original	!	!	!	!	!	!	!	!	!
32r	16gg\	2G/	8r	.	8r	.	8G\	no-	8Bn\	no-	8g\	no-	8dd\	no-
32G\LLL	.	.	.	.	.	.	.	.	.	.	.	.	.	.
32Bn\	16r	.	.	.	.	.	.	.	.	.	.	.	.	.
32d\JJJ	.	.	.	.	.	.	.	.	.	.	.	.	.	.
!LO:PB:g=original	!	!	!	!	!	!	!	!	!	!	!	!	!	!
16g\	32r	.	8Bn/	.	8dd\	.	16G\	-mi-	16B\	-mi-	16g\	-mi-	16dd\	-mi-
.	32bn\LLL	.	.	.	.	.	.	.	.	.	.	.	.	.
16r	32dd\	.	.	.	.	.	16G\	-ne	16B\	-ne	16g\	-ne	16dd\	-ne
.	32gg\JJJ	.	.	.	.	.	.	.	.	.	.	.	.	.
8r	32bb-\LLL	.	8r	.	8r	.	8G\	Do-	(>8.B\	Do-	8g\	Do-	8.dd\	Do-
.	32dd\	.	.	.	.	.	.	.	.	.	.	.	.	.
.	32gg\	.	.	.	.	.	.	.	.	.	.	.	.	.
.	32bb-\JJJ	.	.	.	.	.	.	.	.	.	.	.	.	.
32r	16ddd\	.	8B/	.	8dd\	.	8G\	-mi-	.	.	8g\	-mi-	.	.
32GG/LLL	.	.	.	.	.	.	.	.	.	.	.	.	.	.
32BBn/	16r	.	.	.	.	.	.	.	32c\LLL	-mi-	.	.	32ee\LLL	-mi-
32D\JJJ	.	.	.	.	.	.	.	.	32d\JJJ)	.	.	.	32ff\JJJ	.
=33	=33	=33	=33	=33	=33	=33	=33	=33	=33	=33	=33	=33	=33	=33
32G\LLL	8r	8c\L	8r	.	8r	.	8c\	-ni	8c\	-ni	4g\	-ni	4ee\	-ni
32C/	.	.	.	.	.	.	.	.	.	.	.	.	.	.
32E\	.	.	.	.	.	.	.	.	.	.	.	.	.	.
32G\JJJ	.	.	.	.	.	.	.	.	.	.	.	.	.	.
!	!	!	!	!	!	!	!	!	!LO:SIC:s=zabrakło pauzy	!	!	!	!	!
16c\	32r	8G/J	8c/	.	8ee\	.	8G\	in	8ryy	.	.	.	.	.
.	32e/LLL	.	.	.	.	.	.	.	.	.	.	.	.	.
16r	32g/	.	.	.	.	.	.	.	.	.	.	.	.	.
.	32cc\JJJ	.	.	.	.	.	.	.	.	.	.	.	.	.
*clefG2	*	*	*	*	*	*	*	*	*	*	*	*	*	*
32r	16ee\	8E/L	8r	.	8r	.	8E\	no-	8r	.	8r	.	8r	.
32c/LLL	.	.	.	.	.	.	.	.	.	.	.	.	.	.
32e/	16r	.	.	.	.	.	.	.	.	.	.	.	.	.
32g/JJJ	.	.	.	.	.	.	.	.	.	.	.	.	.	.
16cc\	32r	16C/L	8e/	.	8cc\	.	16C\	-mi-	8e\	in	8g\	in	8cc\	in
.	32ee\LLL	.	.	.	.	.	.	.	.	.	.	.	.	.
16r	32gg\	16E/JJ	.	.	.	.	16E\	-ne	.	.	.	.	.	.
.	32ccc\JJJ	.	.	.	.	.	.	.	.	.	.	.	.	.
=34	=34	=34	=34	=34	=34	=34	=34	=34	=34	=34	=34	=34	=34	=34
!	!	!LO:PB:g=original	!	!	!	!	!	!	!	!	!LO:PB:g=original	!	!	!
*clefF4	*	*	*	*	*	*	*	*	*	*	*	*	*	*
32r	16bbn\	(<2G/	8r	.	8r	.	4G\	Do-	8d\	no-	8g\	no-	8bn\	no-
32G\LLL	.	.	.	.	.	.	.	.	.	.	.	.	.	.
32Bn\	16r	.	.	.	.	.	.	.	.	.	.	.	.	.
32d\JJJ	.	.	.	.	.	.	.	.	.	.	.	.	.	.
16g\	32r	.	8d/	.	8bn\	.	.	.	16d\	-mie-	16g\	-mi-	16b\	-mi-
.	32b-\LLL	.	.	.	.	.	.	.	.	.	.	.	.	.
16r	32dd\	.	.	.	.	.	.	.	16d\	-ne	16g\	-ne	16b\	-ne
.	32gg\JJJ	.	.	.	.	.	.	.	.	.	.	.	.	.
8r	32bb\LLL	.	8r	.	8r	.	4G\	-mi-	8.d\	Do-	8g\	Do-	8.b\	Do-
.	32dd\	.	.	.	.	.	.	.	.	.	.	.	.	.
.	32gg\	.	.	.	.	.	.	.	.	.	.	.	.	.
.	32bb\J	.	.	.	.	.	.	.	.	.	.	.	.	.
32r	16ddd\JJ	.	8d/	.	8b\	.	.	.	.	.	8g\	-mi-	.	.
32GG/LLL	.	.	.	.	.	.	.	.	.	.	.	.	.	.
32BBn/	16r	.	.	.	.	.	.	.	32e\LLL	-mi-	.	.	32cc\LLL	-mi-
32D\JJJ	.	.	.	.	.	.	.	.	32f\JJJ	.	.	.	32dd\JJJ	.
=35	=35	=35	=35	=35	=35	=35	=35	=35	=35	=35	=35	=35	=35	=35
32G\LLL	8r	8c\)	8r	.	8r	.	8c\	-ni	8e\	-ni	8g\	-ni	8cc\	-ni
32C/	.	.	.	.	.	.	.	.	.	.	.	.	.	.
32E\	.	.	.	.	.	.	.	.	.	.	.	.	.	.
32G\JJJ	.	.	.	.	.	.	.	.	.	.	.	.	.	.
16c\	32r	8r	8e/	.	8cc\	.	8G\	in	8e\	in	8g\	in	8cc\	in
.	32e/LLL	.	.	.	.	.	.	.	.	.	.	.	.	.
16r	32g/	.	.	.	.	.	.	.	.	.	.	.	.	.
.	32cc\JJJ	.	.	.	.	.	.	.	.	.	.	.	.	.
*clefG2	*	*	*	*	*	*	*	*	*	*	*	*	*	*
32r	32ee\LLL	8E/	8r	.	8r	.	8E\	no-	[4c\	no-	(>4g\	no-	(>4gg\	no-
32c/LLL	32cc\	.	.	.	.	.	.	.	.	.	.	.	.	.
32e/	32ee\	.	.	.	.	.	.	.	.	.	.	.	.	.
32g/JJJ	32gg\JJJ	.	.	.	.	.	.	.	.	.	.	.	.	.
16cc\	16ccc\	8r	8cc\	.	8gg\	.	16C/	-mi-	.	.	.	.	.	.
16r	16r	.	.	.	.	.	16E\	-ne	.	.	.	.	.	.
*clefF4	*	*	*	*	*	*	*	*	*	*	*	*	*	*
=36	=36	=36	=36	=36	=36	=36	=36	=36	=36	=36	=36	=36	=36	=36
!LO:LB:g=original	!	!	!	!	!	!	!	!	!	!	!	!	!	!
!	!	!	!	!	!	!	!LO:PB:g=original	!	!LO:PB:g=original	!	!	!	!	!
8F\	2r	8F/	8r	.	8r	.	4F\	Do-	8c\]	.	8a\)	.	16gg\LL	.
.	.	.	.	.	.	.	.	.	.	.	.	.	16ff\JJ)	.
8r	.	8r	8a/	.	8dd\	.	.	.	16d\	-mi-	16a\	-mi-	16a\	-mi-
.	.	.	.	.	.	.	.	.	16d\	-ne	16a\	-ne	16dd\	-ne
8G\L	.	8G/L	16r	.	16r	.	4G\	-mi-	8e\	Do-	8g\	Do-	8cc\	Do-
.	.	.	16G/ 16e/	.	16cc\	.	.	.	.	.	.	.	.	.
!LO:TX:t=P:problem=mixed beam	!	!	!	!	!	!	!	!	!	!	!	!	!	!
8GG/J	.	8G/J	16r	.	16r	.	.	.	8d\	-mi-	8g\	-mi-	8bn\	-mi-
.	.	.	16G/ 16f/	.	16bn\	.	.	.	.	.	.	.	.	.
=37	=37	=37	=37	=37	=37	=37	=37	=37	=37	=37	=37	=37	=37	=37
!	!	!	!LO:PB:g=original	!	!	!	!	!	!	!	!	!	!	!
8C/	8r	8c\	8G/	.	8cc\	.	8C/	-ni	8e\	-ni	8g\	-ni	8cc\	-ni
8r	(>8gg\	8r	8r	.	8r	.	8r	.	8r	.	8r	.	8r	.
4r	16gg\LL)	4r	4r	.	4r	.	4r	.	4r	.	4r	.	4r	.
.	(>16ccc\	.	.	.	.	.	.	.	.	.	.	.	.	.
.	16ee\	.	.	.	.	.	.	.	.	.	.	.	.	.
.	32aa\L	.	.	.	.	.	.	.	.	.	.	.	.	.
.	32gg\JJJ)	.	.	.	.	.	.	.	.	.	.	.	.	.
=38	=38	=38	=38	=38	=38	=38	=38	=38	=38	=38	=38	=38	=38	=38
!	!	!	!	!	!	!	!	!	!	!	!	!	!LO:PB:g=original	!
*	*	*	*	*	*^	*	*	*	*	*	*	*	*	*
!	!LO:TX:t=P:problem=przekreślony obiegnik	!	!	!	!LO:TX:t=P:problem=półnuta 2G na środku taktu	!	!	!	!	!	!	!	!	!	!
16G\LL	(>8.cc\LsSS	(<2G/	4c/	.	4e/	2G/	.	2r	.	2r	.	2r	.	2r	.
16c\	.	.	.	.	.	.	.	.	.	.	.	.	.	.	.
16e\	.	.	.	.	.	.	.	.	.	.	.	.	.	.	.
16c\JJ	16ee\Jk	.	.	.	.	.	.	.	.	.	.	.	.	.	.
16G\LL	16ddLL\	.	4d/	.	4f/	.	.	.	.	.	.	.	.	.	.
16d\	16g/	.	.	.	.	.	.	.	.	.	.	.	.	.	.
16f\	16a/	.	.	.	.	.	.	.	.	.	.	.	.	.	.
16d\JJ	16bn\JJ	.	.	.	.	.	.	.	.	.	.	.	.	.	.
*	*	*	*	*	*v	*v	*	*	*	*	*	*	*	*	*
*clefG2	*	*	*	*	*	*	*	*	*	*	*	*	*	*
=39	=39	=39	=39	=39	=39	=39	=39	=39	=39	=39	=39	=39	=39	=39
(<16c/LL	8cc\)	4.C/)	4.c/	.	4.G/ 4.e/	.	2r	.	2r	.	2r	.	2r	.
16e/	.	.	.	.	.	.	.	.	.	.	.	.	.	.
16g/	(>8gg\	.	.	.	.	.	.	.	.	.	.	.	.	.
16e/JJ	.	.	.	.	.	.	.	.	.	.	.	.	.	.
8c/)	16gg\LL	.	.	.	.	.	.	.	.	.	.	.	.	.
.	16ccc\	.	.	.	.	.	.	.	.	.	.	.	.	.
8r	16ee\	8r	8r	.	8r	.	.	.	.	.	.	.	.	.
.	32aa\L	.	.	.	.	.	.	.	.	.	.	.	.	.
.	32gg\JJJ	.	.	.	.	.	.	.	.	.	.	.	.	.
*clefF4	*	*	*	*	*	*	*	*	*	*	*	*	*	*
=40	=40	=40	=40	=40	=40	=40	=40	=40	=40	=40	=40	=40	=40	=40
*	*	*	*	*	*^	*	*	*	*	*	*	*	*	*
!	!LO:TX:t=P:problem=przekreślony obiegnik	!	!	!	!	!	!	!	!	!	!	!	!	!	!
!	!	!	!	!	!LO:PB:g=original	!LO:TX:t=P:problem=półnuta na środku taktu	!	!	!	!	!	!	!	!	!
(>16G\LL	8.cc\L)sSS	2G/	(<4c/	.	4e/	2G/	.	2r	.	2r	.	2r	.	2r	.
16c\	.	.	.	.	.	.	.	.	.	.	.	.	.	.	.
16e\	.	.	.	.	.	.	.	.	.	.	.	.	.	.	.
16c\JJ	16ee\Jk	.	.	.	.	.	.	.	.	.	.	.	.	.	.
16G\LL)	16ddLL\	.	4d/)	.	4f/	.	.	.	.	.	.	.	.	.	.
16d\	16g/	.	.	.	.	.	.	.	.	.	.	.	.	.	.
16f\	16a/	.	.	.	.	.	.	.	.	.	.	.	.	.	.
16d\JJ	16bn\JJ	.	.	.	.	.	.	.	.	.	.	.	.	.	.
*	*	*	*	*	*v	*v	*	*	*	*	*	*	*	*	*
=41	=41	=41	=41	=41	=41	=41	=41	=41	=41	=41	=41	=41	=41	=41
*clefG2	*	*	*	*	*	*	*	*	*	*	*	*	*	*
16c/LL	32cc\LLL	[2c\	8c/	.	8e/	.	2r	.	2r	.	2r	.	2r	.
.	32dd\	.	.	.	.	.	.	.	.	.	.	.	.	.
16e/	32cc\	.	.	.	.	.	.	.	.	.	.	.	.	.
.	32bn\JJJ	.	.	.	.	.	.	.	.	.	.	.	.	.
16g/	32cc\LLL	.	(<8e/	.	(<8g/	.	.	.	.	.	.	.	.	.
.	32dd\	.	.	.	.	.	.	.	.	.	.	.	.	.
16e/JJ	32ee\	.	.	.	.	.	.	.	.	.	.	.	.	.
.	32cc\JJJ	.	.	.	.	.	.	.	.	.	.	.	.	.
16c/LL	(>32dd\LLL	.	4f/)	.	4a/)	.	.	.	.	.	.	.	.	.
.	32ee\	.	.	.	.	.	.	.	.	.	.	.	.	.
16f/	32dd\	.	.	.	.	.	.	.	.	.	.	.	.	.
.	32cc#X\JJJ	.	.	.	.	.	.	.	.	.	.	.	.	.
16a/	32dd\LLL	.	.	.	.	.	.	.	.	.	.	.	.	.
.	32ee\	.	.	.	.	.	.	.	.	.	.	.	.	.
16f/JJ	32ff\	.	.	.	.	.	.	.	.	.	.	.	.	.
.	32dd\JJJ)	.	.	.	.	.	.	.	.	.	.	.	.	.
=42	=42	=42	=42	=42	=42	=42	=42	=42	=42	=42	=42	=42	=42	=42
!LO:PB:g=original	!	!	!	!	!	!	!	!	!	!	!	!	!	!
16c/LL	32ee\LLL	2c\]	(<4g/	.	(>4b-X/	.	2r	.	2r	.	2r	.	2r	.
.	32ff\	.	.	.	.	.	.	.	.	.	.	.	.	.
16g/	32ee\	.	.	.	.	.	.	.	.	.	.	.	.	.
.	32dd#X\JJJ	.	.	.	.	.	.	.	.	.	.	.	.	.
16b-X\	32ee\LLL	.	.	.	.	.	.	.	.	.	.	.	.	.
.	32ff\	.	.	.	.	.	.	.	.	.	.	.	.	.
16g/JJ	32gg\	.	.	.	.	.	.	.	.	.	.	.	.	.
.	32ee\JJJ	.	.	.	.	.	.	.	.	.	.	.	.	.
16c/LL	32ff\LLL	.	4f/)	.	4a/)	.	.	.	.	.	.	.	.	.
.	32gg\	.	.	.	.	.	.	.	.	.	.	.	.	.
16f/	32ff\	.	.	.	.	.	.	.	.	.	.	.	.	.
.	32ee\JJJ	.	.	.	.	.	.	.	.	.	.	.	.	.
16a/	32ff\LLL	.	.	.	.	.	.	.	.	.	.	.	.	.
.	32gg\	.	.	.	.	.	.	.	.	.	.	.	.	.
16f/JJ	32aa\	.	.	.	.	.	.	.	.	.	.	.	.	.
.	32ff\JJJ	.	.	.	.	.	.	.	.	.	.	.	.	.
=43	=43	=43	=43	=43	=43	=43	=43	=43	=43	=43	=43	=43	=43	=43
(<16c/LL	(>32gg\LLL	[2c\	[2e/	.	[2g/	.	2r	.	2r	.	2r	.	2r	.
.	32aa\	.	.	.	.	.	.	.	.	.	.	.	.	.
16e/	32gg\	.	.	.	.	.	.	.	.	.	.	.	.	.
.	32ff#X\JJJ	.	.	.	.	.	.	.	.	.	.	.	.	.
16g/	32gg\LLL	.	.	.	.	.	.	.	.	.	.	.	.	.
.	32bb-\	.	.	.	.	.	.	.	.	.	.	.	.	.
16e/JJ	32aa\	.	.	.	.	.	.	.	.	.	.	.	.	.
.	32ccc\JJJ)	.	.	.	.	.	.	.	.	.	.	.	.	.
16c/LL	32bb-\LLL	.	.	.	.	.	.	.	.	.	.	.	.	.
.	32ccc\	.	.	.	.	.	.	.	.	.	.	.	.	.
16e/	32bb-\	.	.	.	.	.	.	.	.	.	.	.	.	.
.	32aa\JJJ	.	.	.	.	.	.	.	.	.	.	.	.	.
16g/	32bb-\LLL	.	.	.	.	.	.	.	.	.	.	.	.	.
.	32ddd\	.	.	.	.	.	.	.	.	.	.	.	.	.
16e/JJ	32aa\	.	.	.	.	.	.	.	.	.	.	.	.	.
.	32ccc\JJJ	.	.	.	.	.	.	.	.	.	.	.	.	.
=44	=44	=44	=44	=44	=44	=44	=44	=44	=44	=44	=44	=44	=44	=44
!	!	!LO:PB:g=original	!	!	!	!	!	!	!	!	!	!	!	!
8c/)	(>32bb-\LLL	8c\]	8e/]	.	8g/]	.	2r	.	2r	.	2r	.	2r	.
.	32ccc\	.	.	.	.	.	.	.	.	.	.	.	.	.
.	32aa\	.	.	.	.	.	.	.	.	.	.	.	.	.
.	32bb-\JJJ	.	.	.	.	.	.	.	.	.	.	.	.	.
8r	32gg\LLL	8r	8r	.	8r	.	.	.	.	.	.	.	.	.
.	32aa\	.	.	.	.	.	.	.	.	.	.	.	.	.
.	32ff\	.	.	.	.	.	.	.	.	.	.	.	.	.
.	32gg\JJJ	.	.	.	.	.	.	.	.	.	.	.	.	.
4r	32ee\LLL	4r	4r	.	4r	.	.	.	.	.	.	.	.	.
.	32ff\	.	.	.	.	.	.	.	.	.	.	.	.	.
.	32dd\	.	.	.	.	.	.	.	.	.	.	.	.	.
.	32ee\JJJ	.	.	.	.	.	.	.	.	.	.	.	.	.
.	32cc\LLL	.	.	.	.	.	.	.	.	.	.	.	.	.
.	32dd\	.	.	.	.	.	.	.	.	.	.	.	.	.
.	32b-\	.	.	.	.	.	.	.	.	.	.	.	.	.
.	32cc\JJJ	.	.	.	.	.	.	.	.	.	.	.	.	.
=45	=45	=45	=45	=45	=45	=45	=45	=45	=45	=45	=45	=45	=45	=45
2r	8a/)	2r	2r	.	8r	.	2r	.	2r	.	2r	.	8r	.
.	8r	.	.	.	(>8cc\	.	.	.	.	.	.	.	(>8cc\	Be-
.	4r	.	.	.	16cc\LL	.	.	.	.	.	.	.	16cc\LL	.
.	.	.	.	.	16ff\	.	.	.	.	.	.	.	16ff\	.
.	.	.	.	.	16a/	.	.	.	.	.	.	.	16a\JJ	.
.	.	.	.	.	32dd\L	.	.	.	.	.	.	.	32dd\LLL	-ne-
!	!	!LO:TX:t=P:problem=V.S. między taktami	!	!	!	!	!	!	!	!	!	!	!	!
!	!	!LO:TX:i:b:B:t=V.S.	!	!	!	!	!	!	!	!	!	!	!	!
.	.	.	.	.	32cc\JJJ	.	.	.	.	.	.	.	32cc\JJJ)	.
*clefF4	*	*	*	*	*	*	*	*	*	*	*	*	*	*
=46	=46	=46	=46	=46	=46	=46	=46	=46	=46	=46	=46	=46	=46	=46
!LO:PB:g=original	!	!LO:LB:g=original	!	!	!	!	!	!	!	!	!	!	!	!
4C/	2r	8r	8r	.	4.cc\)	.	4r	.	8r	.	8r	.	(>4.cc\	-dic-
.	.	8c\L	8e/L	.	.	.	.	.	8c\	qui	8e\	qui	.	.
4r	.	8d\	8f/	.	.	.	8r	.	8d\L	ve-	8f\L	ve-	.	.
.	.	8e\J	8g/J	.	(>16cc\LL	.	16C/	Be-	8e\J	.	8g\J	.	16cc\LL	.
.	.	.	.	.	16b-\JJ)	.	16C/	-ne-	.	.	.	.	16b-\JJ)	.
=47	=47	=47	=47	=47	=47	=47	=47	=47	=47	=47	=47	=47	=47	=47
4F\	2r	8f\L	4f/	.	4a-X/	.	16.F\LL	-dic-	8f\	-nit	4f\	-nit	4a-X\	-tus
.	.	.	.	.	.	.	32A-X\JJk	.	.	.	.	.	.	.
.	.	8c\J	.	.	.	.	8F\	-tus	8c\	Be-	.	.	.	.
!	!	!	!	!	!	!	!	!	!LO:TX:a:t=P:problem= niejednoznaczy początek łuku	!	!	!	!	!
4r	.	(>16c\LL	4r	.	4r	.	4r	.	(>16c\LL	.	4r	.	4r	.
.	.	16f\	.	.	.	.	.	.	16f\	.	.	.	.	.
.	.	16A-X/	.	.	.	.	.	.	16A-X\JJ	.	.	.	.	.
!	!	!	!LO:TX:b:B:t=V.S.	!	!LO:TX:b:B:t=V.S.	!	!	!	!	!	!	!	!	!
.	.	32d-X\L	.	.	.	.	.	.	32d-X\LLL	-ne-	.	.	.	.
.	.	32c\JJJ	.	.	.	.	.	.	32c\JJJ)	.	.	.	.	.
=48	=48	=48	=48	=48	=48	=48	=48	=48	=48	=48	=48	=48	=48	=48
!	!	!	!	!	!LO:LB:g=original	!	!	!	!	!	!	!	!	!
4C/	2r	4.c\)	8r	.	8r	.	4r	.	(>4.c\	-dic-	8r	.	8r	.
!	!	!	!	!	!	!	!	!	!	!	!LO:N:vis=4	!	!	!
.	.	.	8c/L	.	8en/L	.	.	.	.	.	8c\	qui	8e/	qui
4r	.	.	8d/	.	8f/	.	8r	.	.	.	8d\L	ve-	8f/L	ve-
.	.	16cLL\	8e/J	.	8g/J	.	16C/	Be-	16c\LL	.	8e\J	.	8g\J	.
.	.	16B-/JJ	.	.	.	.	16C/	-ne-	16B-\JJ)	.	.	.	.	.
=49	=49	=49	=49	=49	=49	=49	=49	=49	=49	=49	=49	=49	=49	=49
!	!	!LO:PB:g=original	!	!	!	!	!	!	!	!	!	!	!	!
8F\	2r	8A-X/L	8r	.	8r	.	16.F\LL	-dic-	4A-X\	-tus	4f\	-nit	4a-X\	-nit
.	.	.	.	.	.	.	32A-X\JJk	.	.	.	.	.	.	.
8r	.	8F/J	8f/	.	8a-X/	.	8F\	-tus	.	.	.	.	.	.
8E-X\	.	8r	8r	.	8r	.	4E-X\	qui	4c\	qui	4f\	qui	4an\	qui
8r	.	8c\	8f/	.	8an/	.	.	.	.	.	.	.	.	.
=50	=50	=50	=50	=50	=50	=50	=50	=50	=50	=50	=50	=50	=50	=50
!	!	!	!	!	!	!	!LO:PB:g=original	!	!	!	!	!	!	!
8D-X\	2r	8r	8r	.	8r	.	8D-X\	ve-	8d-X\	ve-	8f\	ve-	8b-\	ve-
8r	.	8d-X\	8f/	.	8b-\	.	8D-\	-nit	8d-\	-nit	8f\	-nit	16b-\	-nit
.	.	.	.	.	.	.	.	.	.	.	.	.	16ff\	in
8D-\	.	4d-\	4f/	.	(>16ff\LL	.	8r	.	4r	.	8r	.	16ff\LL	no-
.	.	.	.	.	16cc\	.	.	.	.	.	.	.	16cc\JJ	.
8r	.	.	.	.	16dd-X\	.	8D-\	in	.	.	8f\	in	16dd-X\LL	-mi-
.	.	.	.	.	16b-\JJ)	.	.	.	.	.	.	.	16b-\JJ	-ne
=51	=51	=51	=51	=51	=51	=51	=51	=51	=51	=51	=51	=51	=51	=51
!	!	!	!	!	!	!	!	!	!	!	!LO:PB:g=original	!	!LO:PB:g=original	!
8E-X\	2r	8r	8r	.	8r	.	8E-X\	no-	4r	.	8c/	no-	4a-X\	Do-
8r	.	8c\	8c/ 8e-X/	.	8a-X/	.	16E-\	-mi-	.	.	16c/	-mi-	.	.
.	.	.	.	.	.	.	16E-\	-ne	.	.	16c/	-ne	.	.
8E-\	.	8r	8r	.	8r	.	8E-\	Do-	8r	.	8d-X/	Do-	4g\	-mi-
8r	.	8B-/	8d-X/ 8e-/	.	8g/	.	8E-\	-mi-	16e-X\	Be-	8B-/	-mi-	.	.
.	.	.	.	.	.	.	.	.	16e-\	-ne-	.	.	.	.
=52	=52	=52	=52	=52	=52	=52	=52	=52	=52	=52	=52	=52	=52	=52
(<2AA-X/	2r	2A-X/	2c/	.	2a-X/	.	4AA-X/	-ni	16e-X\LL	-dic-	4c\	-ni	4a-X\	-ni
.	.	.	.	.	.	.	.	.	16c\JJ	.	.	.	.	.
.	.	.	.	.	.	.	.	.	4A-X\	-tus	.	.	.	.
.	.	.	.	.	.	.	4r	.	.	.	4r	.	4r	.
.	.	.	.	.	.	.	.	.	8c\	qui	.	.	.	.
=53	=53	=53	=53	=53	=53	=53	=53	=53	=53	=53	=53	=53	=53	=53
8E-X\)	2r	8r	8r	.	8r	.	4r	.	32e-X\LLL	ve-	4r	.	4r	.
.	.	.	.	.	.	.	.	.	32d-X\	.	.	.	.	.
.	.	.	.	.	.	.	.	.	32B-\	.	.	.	.	.
.	.	.	.	.	.	.	.	.	32G/JJJ	.	.	.	.	.
8r	.	8B-/	8d-X/	.	8g/	.	.	.	4E/	-nit	.	.	.	.
8D-X\	.	8r	8r	.	8r	.	8r	.	.	.	8r	.	8r	.
8r	.	8E-X/	8g/	.	8b-/	.	8D-X\	in	8G/	qui	8b-\	in	8ee-X\	in
=54	=54	=54	=54	=54	=54	=54	=54	=54	=54	=54	=54	=54	=54	=54
!	!	!	!	!	!	!	!	!	!LO:LB:g=original	!	!	!	!	!
(<4C/	2r	(<2E-X/	2c/	.	2a-X/	.	8.C/	no-	16A-X\LL	ve-	8.a-X\	no-	8.ee-X\	no-
.	.	.	.	.	.	.	.	.	16c\JJ	.	.	.	.	.
.	.	.	.	.	.	.	.	.	4e-X\	-nit	.	.	.	.
.	.	.	.	.	.	.	16C/	-mi-	.	.	16a-\	-mi-	16ee-\	-mi-
4AA-X/)	.	.	.	.	.	.	8C/	-ne	.	.	8a-\	-ne	8ee-\	-ne
.	.	.	.	.	.	.	8r	.	8c\	in	8r	.	8r	.
=55	=55	=55	=55	=55	=55	=55	=55	=55	=55	=55	=55	=55	=55	=55
!	!	!LO:PB:g=original	!	!	!	!	!	!	!	!	!	!	!	!
8E-X\	2r	8r	8r	.	8r	.	4r	.	(>32e-X\LLL	no-	4r	.	4r	.
.	.	.	.	.	.	.	.	.	32d-X\JJJ)	.	.	.	.	.
.	.	.	.	.	.	.	.	.	32B-\	-mi-	.	.	.	.
.	.	.	.	.	.	.	.	.	32G/	-ne	.	.	.	.
8r	.	8E-X/)	8d-X/	.	8g/	.	.	.	4E/	Do-	.	.	.	.
8D-X\	.	8r	8r	.	8r	.	8r	.	.	.	8r	.	8r	.
8r	.	8E-/	8g/	.	8b-/	.	16E-X/	Do-	8G/	-mi-	16b-X\	Do-	16ee-X\	Do-
.	.	.	.	.	.	.	16D-X/	-mi-	.	.	16b-\	-mi-	16ee-\	-mi-
=56	=56	=56	=56	=56	=56	=56	=56	=56	=56	=56	=56	=56	=56	=56
!	!	!	!	!	!LO:PB:g=original	!	!LO:LB:g=original	!	!	!	!	!	!	!
4C/	2r	4E-X/	8a-X/	.	4a-X/	.	4C/	-ni	4A-X\	-ni	8a-X\	-ni	4ee-X\	-ni
.	.	.	8e-X/	.	.	.	.	.	.	.	(>8e-X\	Be-	.	.
4r	.	4r	(<16e-/LL	.	4r	.	4r	.	4r	.	16e-\LL	.	4r	.
.	.	.	16a-/	.	.	.	.	.	.	.	16a-X\	.	.	.
.	.	.	16c/	.	.	.	.	.	.	.	16c\JJ)	.	.	.
.	.	.	32f/L	.	.	.	.	.	.	.	32f\LLL	-ne-	.	.
.	.	.	32e-/JJJ)	.	.	.	.	.	.	.	32e-\JJJ	.	.	.
=57	=57	=57	=57	=57	=57	=57	=57	=57	=57	=57	=57	=57	=57	=57
!	!	!	!LO:PB:g=original	!	!	!	!	!	!	!	!	!	!	!
8r	2r	8r	4.e-X/	.	8r	.	8r	.	8r	.	4.e-X\	-dic-	4r	.
8E-X\L	.	8E-X/L	.	.	8g/L	.	8E-X\	qui	8G\	qui	.	.	.	.
8F\	.	8F/	.	.	8a-X/	.	8F\L	ve-	8A-X\L	ve-	.	.	8r	.
8G\J	.	8G/J	16e-/LL	.	8b-\J	.	8G\J	.	8B-\J	.	16e-\LL	.	(>16ee-X\	Be-
.	.	.	16d-X/JJ	.	.	.	.	.	.	.	16d-X\JJ	.	16ee-\)	-ne-
=58	=58	=58	=58	=58	=58	=58	=58	=58	=58	=58	=58	=58	=58	=58
!	!	!	!	!	!	!	!	!	!	!	!LO:LB:g=original	!	!LO:LB:g=original	!
8A-X\	2r	4A-X/	4c/	.	4cc\	.	8A-X\	-nit	4c\	-nit	4c\	-tus	16.ee-X\LL	-dic-
.	.	.	.	.	.	.	.	.	.	.	.	.	32cc\JJk	-ctus
8E-X\	.	.	.	.	.	.	8E-X\	Be-	.	.	.	.	8a-X\	.
16E-\LL	.	4r	4r	.	4r	.	(>16E-\LL	.	4r	.	4r	.	4r	.
16A-\	.	.	.	.	.	.	16A-\	.	.	.	.	.	.	.
16C/	.	.	.	.	.	.	16C/JJ)	.	.	.	.	.	.	.
32F\L	.	.	.	.	.	.	32F\LLL	-ne-	.	.	.	.	.	.
32E-\JJJ	.	.	.	.	.	.	32E-\JJJ	.	.	.	.	.	.	.
=59	=59	=59	=59	=59	=59	=59	=59	=59	=59	=59	=59	=59	=59	=59
!LO:PB:g=original	!	!	!	!	!	!	!	!	!	!	!	!	!	!
4.E-X\	2r	8r	8r	.	8r	.	(>4.E-X\	-dic-	4r	.	8r	.	8r	.
.	.	(>4e-X\	8e-X/L	.	8g/L	.	.	.	.	.	8e-X\	qui	8g\	qui
.	.	.	8f/	.	8a-X/	.	.	.	8r	.	8f\L	ve-	8a-X\L	ve-
16E-\LL	.	8d-X\	8g/J	.	8b-\J	.	16E-\LL	.	16G/LL	qui	8g\J	.	8b-\J	.
16D-X\JJ	.	.	.	.	.	.	16D-X\JJ)	.	16F/JJ	.	.	.	.	.
=60	=60	=60	=60	=60	=60	=60	=60	=60	=60	=60	=60	=60	=60	=60
!	!	!	!	!	!	!	!	!	!LO:PB:g=original	!	!	!	!	!
8C/	2r	8c\)	8r	.	8r	.	8C/	-tus	8En/	ve-	4g\	-nit	4cc\	-nit
8r	.	8r	8en/	.	8cc\	.	8C/	qui	16E/	-nit	.	.	.	.
.	.	.	.	.	.	.	.	.	16E/	qui	.	.	.	.
8C/	.	8c\	8r	.	8r	.	8C/	ve-	8E/	ve-	4g\	in	4b-X\	in
8r	.	8r	8e/	.	8b-\	.	16C/	-nit	16E/	-nit	.	.	.	.
.	.	.	.	.	.	.	16C/	in	16E/	in	.	.	.	.
=61	=61	=61	=61	=61	=61	=61	=61	=61	=61	=61	=61	=61	=61	=61
8D-X\	2r	8d-X\	8r	.	8r	.	8D-X/	no-	8F/	no-	8f\	no-	8a-X\	no-
8r	.	8r	8f/	.	8a-X/	.	16D-/	-mi-	16F/	-mi-	16f\	-mi-	16a-\	-mi-
.	.	.	.	.	.	.	16D-/	-ne	16F/	-ne	16f\	-ne	16a-\	-ne
8D-\	.	8d-\	8r	.	8r	.	8.D-/	Do-	8.F/	Do-	8f\	Do-	8.ff\	Do-
!	!	!	!	!	!	!	!	!	!	!	!LO:N:vis=16	!	!	!
8r	.	8r	8f/	.	8bn/	.	.	.	.	.	8f\	-mi-	.	.
.	.	.	.	.	.	.	16D-/	-mi-	16F/	-mi-	.	.	16bn\	-mi-
=62	=62	=62	=62	=62	=62	=62	=62	=62	=62	=62	=62	=62	=62	=62
!	!	!LO:PB:g=original	!	!	!	!	!LO:PB:g=original	!	!	!	!	!	!	!
4C/	16r	4c\	4G/ 4en/	.	4cc\	.	4C/	-ni	4G/	-ni	4en\	-ni	4cc\	-ni
.	(>32cc\LLL	.	.	.	.	.	.	.	.	.	.	.	.	.
.	32dd\JJJ	.	.	.	.	.	.	.	.	.	.	.	.	.
.	32ee\LLL	.	.	.	.	.	.	.	.	.	.	.	.	.
.	32ff\	.	.	.	.	.	.	.	.	.	.	.	.	.
.	32gg\	.	.	.	.	.	.	.	.	.	.	.	.	.
.	32aa\JJJ	.	.	.	.	.	.	.	.	.	.	.	.	.
4r	32bb-\LLL	4r	4r	.	4r	.	4r	.	4r	.	4r	.	4r	.
.	32ff#X\	.	.	.	.	.	.	.	.	.	.	.	.	.
.	32gg\	.	.	.	.	.	.	.	.	.	.	.	.	.
.	32ffn\JJJ	.	.	.	.	.	.	.	.	.	.	.	.	.
.	32ee\LLL	.	.	.	.	.	.	.	.	.	.	.	.	.
.	32dd\	.	.	.	.	.	.	.	.	.	.	.	.	.
.	32cc\	.	.	.	.	.	.	.	.	.	.	.	.	.
.	32b-\JJJ)	.	.	.	.	.	.	.	.	.	.	.	.	.
=63	=63	=63	=63	=63	=63	=63	=63	=63	=63	=63	=63	=63	=63	=63
32f\LLL	8a/	[2c\	8r	.	8r	.	8r	.	8r	.	8r	.	8r	.
32F\	.	.	.	.	.	.	.	.	.	.	.	.	.	.
32A\	.	.	.	.	.	.	.	.	.	.	.	.	.	.
32c\JJJ	.	.	.	.	.	.	.	.	.	.	.	.	.	.
16f\	32r	.	8f/	.	8a/	.	16F\	Be-	16c\	Be-	16f\	Be-	16a\	Be-
.	32a/LLL	.	.	.	.	.	.	.	.	.	.	.	.	.
16r	32cc\	.	.	.	.	.	16F\	-ne-	16c\	-ne-	16f\	-ne-	16a\	-ne-
.	32ff\JJJ	.	.	.	.	.	.	.	.	.	.	.	.	.
8r	32aa\LLL	.	8r	.	8r	.	8F\	-dic-	8c\	-dic-	8f\	-dic-	8a\	-dic-
.	32cc\	.	.	.	.	.	.	.	.	.	.	.	.	.
.	32ff\	.	.	.	.	.	.	.	.	.	.	.	.	.
.	32aa\JJJ	.	.	.	.	.	.	.	.	.	.	.	.	.
*^	*	*	*	*	*	*	*	*	*	*	*	*	*	*
8A/ 8c/	8F\	32ccc\LLL	.	8f/	.	8a/	.	16F\	-tus	16c\	-tus	16f\	-tus	16a\	-tus
.	.	32fff\	.	.	.	.	.	.	.	.	.	.	.	.	.
.	.	32ccc\	.	.	.	.	.	16F\	qui	16c\	qui	16f\	qui	16a\	qui
.	.	32aa\JJJ	.	.	.	.	.	.	.	.	.	.	.	.	.
=64	=64	=64	=64	=64	=64	=64	=64	=64	=64	=64	=64	=64	=64	=64	=64
!	!	!	!	!	!	!LO:PB:g=original	!	!	!	!	!	!	!	!LO:PB:g=original	!
4G/ 4B-/	2F\ 2c\	32ccc\LLL	2c\]	8r	.	8r	.	4F\	ve-	4c\	ve-	8.g\L	ve-	(>4b-\	ve-
.	.	32bb-\	.	.	.	.	.	.	.	.	.	.	.	.	.
.	.	32gg\	.	.	.	.	.	.	.	.	.	.	.	.	.
.	.	32ee\JJJ	.	.	.	.	.	.	.	.	.	.	.	.	.
.	.	32bn\LLL	.	8g/	.	8b-/	.	.	.	.	.	.	.	.	.
.	.	32cc\	.	.	.	.	.	.	.	.	.	.	.	.	.
.	.	32ee\	.	.	.	.	.	.	.	.	.	16en\Jk	.	.	.
.	.	32gg\JJJ	.	.	.	.	.	.	.	.	.	.	.	.	.
4A/	.	32ff\LLL	.	8r	.	8r	.	8F\	-nit	8c\	-nit	8f\	-nit	8a\)	-nit
.	.	32a/	.	.	.	.	.	.	.	.	.	.	.	.	.
.	.	32cc\	.	.	.	.	.	.	.	.	.	.	.	.	.
.	.	32ff\JJJ	.	.	.	.	.	.	.	.	.	.	.	.	.
.	.	(>32aa\LLL	.	8f/	.	8a/	.	16r	.	16r	.	16r	.	16r	.
.	.	32cc\	.	.	.	.	.	.	.	.	.	.	.	.	.
.	.	32ff\	.	.	.	.	.	16F\	qui	16c\	qui	16f\	qui	16a\	qui
.	.	32aa\JJJ	.	.	.	.	.	.	.	.	.	.	.	.	.
=65	=65	=65	=65	=65	=65	=65	=65	=65	=65	=65	=65	=65	=65	=65	=65
!LO:PB:g=original	!	!	!	!LO:PB:g=original	!	!	!	!	!	!LO:PB:g=original	!	!LO:PB:g=original	!	!	!
*	*^	*	*	*	*	*	*	*	*	*	*	*	*	*	*
4G/ 4B-/	2F\	2c/	32ccc\LLL	2c\	8r	.	8r	.	(>4F\	ve-	4c\	ve-	8.g\L	ve-	4b-\	ve-
.	.	.	32bb-\	.	.	.	.	.	.	.	.	.	.	.	.	.
.	.	.	32gg\	.	.	.	.	.	.	.	.	.	.	.	.	.
.	.	.	32ee\JJJ)	.	.	.	.	.	.	.	.	.	.	.	.	.
.	.	.	32bn\LLL	.	8g/	.	8b-/	.	.	.	.	.	.	.	.	.
.	.	.	32cc\	.	.	.	.	.	.	.	.	.	.	.	.	.
.	.	.	32ee\	.	.	.	.	.	.	.	.	.	16e\Jk	.	.	.
.	.	.	32gg\JJJ	.	.	.	.	.	.	.	.	.	.	.	.	.
4A/	.	.	(>32ff\LLL	.	8r	.	8r	.	8F\)	-nit	8c\	-nit	8f\	-nit	8a\	-nit
.	.	.	32a/	.	.	.	.	.	.	.	.	.	.	.	.	.
.	.	.	32cc\	.	.	.	.	.	.	.	.	.	.	.	.	.
.	.	.	32ff\JJJ)	.	.	.	.	.	.	.	.	.	.	.	.	.
.	.	.	(>32aa\LLL	.	8f/	.	8a/	.	(>16F\LL	in	8c\	in	8f\	in	8a\	in
.	.	.	32cc\	.	.	.	.	.	.	.	.	.	.	.	.	.
.	.	.	32ff\	.	.	.	.	.	16A\JJ)	.	.	.	.	.	.	.
.	.	.	32aa\JJJ	.	.	.	.	.	.	.	.	.	.	.	.	.
*	*v	*v	*	*	*	*	*	*	*	*	*	*	*	*	*	*
*v	*v	*	*	*	*	*	*	*	*	*	*	*	*	*	*
=66	=66	=66	=66	=66	=66	=66	=66	=66	=66	=66	=66	=66	=66	=66
!!linebreak:original
*clefG2	*	*	*	*	*	*	*	*	*	*	*	*	*	*
32r	16ccc\)	2c\	8r	.	8r	.	8c\	no-	8c\	no-	8e\	no-	8g\	no-
32c/LLL	.	.	.	.	.	.	.	.	.	.	.	.	.	.
32e/	16r	.	.	.	.	.	.	.	.	.	.	.	.	.
32g/JJJ	.	.	.	.	.	.	.	.	.	.	.	.	.	.
16cc\	32r	.	8e/	.	8g/	.	16C/	-mi-	16c\	-mi-	16e\	-mi-	16g\	-mi-
.	(>32ee\LLL	.	.	.	.	.	.	.	.	.	.	.	.	.
16r	32gg\	.	.	.	.	.	16C/	-ne	16c\	-ne	16e\	-ne	16g\	-ne
.	32ccc\JJJ)	.	.	.	.	.	.	.	.	.	.	.	.	.
4r	32eee\LLL	.	8r	.	8r	.	8C/	Do-	8c\	Do-	8.e\	Do-	8.g\	Do-
.	(>32ee\	.	.	.	.	.	.	.	.	.	.	.	.	.
.	32gg\	.	.	.	.	.	.	.	.	.	.	.	.	.
.	32ccc\JJJ	.	.	.	.	.	.	.	.	.	.	.	.	.
.	16eee\)	.	8e/	.	8g/	.	8C/	-mi-	8c\	.	.	.	.	.
.	16r	.	.	.	.	.	.	.	.	.	32f\LLL	-mi-	32a\LLL	-mi-
.	.	.	.	.	.	.	.	.	.	.	32g\JJJ	.	32b-\JJJ	.
*clefF4	*	*	*	*	*	*	*	*	*	*	*	*	*	*
=67	=67	=67	=67	=67	=67	=67	=67	=67	=67	=67	=67	=67	=67	=67
!	!	!	!	!	!	!	!	!LO:PB:g=original	!	!	!	!	!	!
32f\LLL	8r	2c\	8r	.	8r	.	8F\	-ni	8c\	-ni	8f\	-ni	8a\	-ni
32F\	.	.	.	.	.	.	.	.	.	.	.	.	.	.
32A\	.	.	.	.	.	.	.	.	.	.	.	.	.	.
32c\JJJ	.	.	.	.	.	.	.	.	.	.	.	.	.	.
16f\	32r	.	8f/	.	8a/	.	16F\	Be-	16c\	Be-	16f\	Be-	16a\	Be-
.	32a/LLL	.	.	.	.	.	.	.	.	.	.	.	.	.
16r	32cc\	.	.	.	.	.	16F\	-ne-	16c\	-ne-	16f\	-ne-	16a\	-ne-
.	32ff\JJJ	.	.	.	.	.	.	.	.	.	.	.	.	.
4r	32aa\LLL	.	8r	.	8r	.	8F\	-dic-	8c\	-dic-	8f\	-dic-	8a\	-dic-
.	32cc\	.	.	.	.	.	.	.	.	.	.	.	.	.
.	32ff\	.	.	.	.	.	.	.	.	.	.	.	.	.
.	32aa\JJJ	.	.	.	.	.	.	.	.	.	.	.	.	.
.	32ccc\LLL	.	8f/	.	8a/	.	16F\	-tus	16c\	-tus	16f\	-tus	16a\	-tus
.	32fff\	.	.	.	.	.	.	.	.	.	.	.	.	.
.	32ccc\	.	.	.	.	.	16F\	qui	16c\	qui	16f\	qui	16a\	qui
.	32aa\JJJ	.	.	.	.	.	.	.	.	.	.	.	.	.
=68	=68	=68	=68	=68	=68	=68	=68	=68	=68	=68	=68	=68	=68	=68
!LO:PB:g=original	!	!	!	!	!	!	!LO:PB:g=original	!	!	!	!	!	!	!
*^	*	*	*	*	*	*	*	*	*	*	*	*	*	*
4G/ 4B-/ 4c/	2F\	(>32ccc\LLL	2c\	8r	.	8r	.	4F\	ve-	4c\	ve-	8.g\L	ve-	(>4b-\	ve-
.	.	32bb-\	.	.	.	.	.	.	.	.	.	.	.	.	.
.	.	32gg\	.	.	.	.	.	.	.	.	.	.	.	.	.
.	.	32ee\JJJ	.	.	.	.	.	.	.	.	.	.	.	.	.
.	.	16cc\)	.	8g/	.	8b-\	.	.	.	.	.	.	.	.	.
.	.	16r	.	.	.	.	.	.	.	.	.	16e\Jk	.	.	.
4A/ 4c/	.	32r	.	8r	.	8r	.	8F\	-nit	8c\	-nit	8f\	-nit	8a\)	-nit
.	.	32a/LLL	.	.	.	.	.	.	.	.	.	.	.	.	.
.	.	32cc\	.	.	.	.	.	.	.	.	.	.	.	.	.
.	.	32ff\JJJ	.	.	.	.	.	.	.	.	.	.	.	.	.
.	.	32aa\LLL	.	8f/	.	8a/	.	16r	.	16r	.	16r	.	16r	.
.	.	32cc\	.	.	.	.	.	.	.	.	.	.	.	.	.
.	.	32ff\	.	.	.	.	.	16F\	qui	16c\	qui	16f\	qui	16a\	qui
.	.	32aa\JJJ	.	.	.	.	.	.	.	.	.	.	.	.	.
=69	=69	=69	=69	=69	=69	=69	=69	=69	=69	=69	=69	=69	=69	=69	=69
!	!	!	!	!	!	!	!	!	!	!LO:PB:g=original	!	!	!	!LO:PB:g=original	!
4G/ 4B-/ 4c/	2F\	32ccc\LLL	2c\	8r	.	8r	.	4F\	ve-	4c\	ve-	8.g\L	ve-	4b-\	ve-
.	.	32bb-\	.	.	.	.	.	.	.	.	.	.	.	.	.
.	.	32gg\	.	.	.	.	.	.	.	.	.	.	.	.	.
.	.	32ee\JJJ	.	.	.	.	.	.	.	.	.	.	.	.	.
.	.	16cc\	.	8g/	.	8b-\	.	.	.	.	.	.	.	.	.
.	.	16r	.	.	.	.	.	.	.	.	.	16e\Jk	.	.	.
4A/ 4c/	.	32r	.	8r	.	8r	.	8F\	-nit	8c\	-nit	8f\	-nit	8a\	-nit
.	.	32a/LLL	.	.	.	.	.	.	.	.	.	.	.	.	.
.	.	32cc\	.	.	.	.	.	.	.	.	.	.	.	.	.
.	.	32ff\JJJ	.	.	.	.	.	.	.	.	.	.	.	.	.
.	.	32aa\LLL	.	8f/	.	8a/	.	16F\LL	in	8c\	in	8f\	in	8a\	in
.	.	32cc\	.	.	.	.	.	.	.	.	.	.	.	.	.
.	.	32ff\	.	.	.	.	.	16A\JJ	.	.	.	.	.	.	.
.	.	32aa\JJJ	.	.	.	.	.	.	.	.	.	.	.	.	.
*v	*v	*	*	*	*	*	*	*	*	*	*	*	*	*	*
*clefG2	*	*	*	*	*	*	*	*	*	*	*	*	*	*
=70	=70	=70	=70	=70	=70	=70	=70	=70	=70	=70	=70	=70	=70	=70
!	!	!	!	!	!	!	!	!	!	!	!LO:PB:g=original	!	!	!
32r	16ccc\	[2c\	8r	.	8r	.	8c\	no-	8c\	no-	8e\	no-	8g\	no-
32c/LLL	.	.	.	.	.	.	.	.	.	.	.	.	.	.
32e/	16r	.	.	.	.	.	.	.	.	.	.	.	.	.
32g/JJJ	.	.	.	.	.	.	.	.	.	.	.	.	.	.
16cc\	32r	.	8e/	.	8g/	.	16C/	-mi-	16c\	-mi-	16e\	-mi-	16g\	-mi-
.	32ee\LLL	.	.	.	.	.	.	.	.	.	.	.	.	.
16r	32gg\	.	.	.	.	.	16C/	-ne	16c\	-ne	16e\	-ne	16g\	-ne
.	32ccc\JJJ	.	.	.	.	.	.	.	.	.	.	.	.	.
8r	32eee\LLL	.	8r	.	8r	.	8C/	Do-	8c\	Do-	8.e\	Do-	8.g\	Do-
.	32ee\	.	.	.	.	.	.	.	.	.	.	.	.	.
.	32gg\	.	.	.	.	.	.	.	.	.	.	.	.	.
.	32ccc\JJJ	.	.	.	.	.	.	.	.	.	.	.	.	.
32r	16eee\	.	8e/	.	8g/	.	8C/	-mi-	8c\	-mi-	.	.	.	.
*clefF4	*	*	*	*	*	*	*	*	*	*	*	*	*	*
32C/LLL	.	.	.	.	.	.	.	.	.	.	.	.	.	.
32E\	16r	.	.	.	.	.	.	.	.	.	32f\LLL	-mi-	32a\LLL	-mi-
32G\JJJ	.	.	.	.	.	.	.	.	.	.	32g\JJJ	.	32b-\JJJ	.
=71	=71	=71	=71	=71	=71	=71	=71	=71	=71	=71	=71	=71	=71	=71
!LO:PB:g=original	!	!LO:PB:g=original	!LO:PB:g=original	!	!	!	!	!	!	!	!	!	!	!
32c\LLL	8r	(>2c\]	8r	.	8r	.	8F\	-ni	4c\	-ni	4f\	-ni	4a\	-ni
32F\	.	.	.	.	.	.	.	.	.	.	.	.	.	.
32A\	.	.	.	.	.	.	.	.	.	.	.	.	.	.
32c\JJJ	.	.	.	.	.	.	.	.	.	.	.	.	.	.
16f\	32r	.	8f/	.	8a/	.	8c\	.	.	.	.	.	.	.
.	32a/LLL	.	.	.	.	.	.	.	.	.	.	.	.	.
16r	32cc\	.	.	.	.	.	.	.	.	.	.	.	.	.
.	32ff\JJJ	.	.	.	.	.	.	.	.	.	.	.	.	.
*clefG2	*	*	*	*	*	*	*	*	*	*	*	*	*	*
32r	16aa\	.	8r	.	8r	.	8A\	.	8r	.	8r	.	8r	.
32f/LLL	.	.	.	.	.	.	.	.	.	.	.	.	.	.
32a/	16r	.	.	.	.	.	.	.	.	.	.	.	.	.
32cc\JJJ	.	.	.	.	.	.	.	.	.	.	.	.	.	.
16ff\	32r	.	8a/	.	8ff\	.	16F\	.	8c\	in	8a\	in	8ff\	in
.	32aa\LLL	.	.	.	.	.	.	.	.	.	.	.	.	.
16r	32ccc\	.	.	.	.	.	16A\	in	.	.	.	.	.	.
.	32fff\JJJ	.	.	.	.	.	.	.	.	.	.	.	.	.
=72	=72	=72	=72	=72	=72	=72	=72	=72	=72	=72	=72	=72	=72	=72
!	!	!	!	!	!LO:PB:g=original	!	!	!	!	!	!	!	!	!
32r	16eee\	2c\	8r	.	8r	.	8c\	no-	8c\	no-	8g\	no-	8ee\	no-
32c/LLL	.	.	.	.	.	.	.	.	.	.	.	.	.	.
32e/	16r	.	.	.	.	.	.	.	.	.	.	.	.	.
32g/JJJ	.	.	.	.	.	.	.	.	.	.	.	.	.	.
16cc\	32r	.	8g/ 8b-/	.	8ee\	.	16C/	-mi-	16c\	-mi-	16g\	-mi-	16ee\	-mi-
.	32ee\LLL	.	.	.	.	.	.	.	.	.	.	.	.	.
16r	32gg\	.	.	.	.	.	16C/	-ne	16c\	-ne	16g\	-ne	16ee\	-ne
.	32ccc\JJJ	.	.	.	.	.	.	.	.	.	.	.	.	.
*clefF4	*	*	*	*	*	*	*	*	*	*	*	*	*	*
8r	32eee\LLL	.	8r	.	8r	.	8C/	Do-	8c\	Do-	8.g\	Do-	8.ee\	Do-
.	32ee\	.	.	.	.	.	.	.	.	.	.	.	.	.
.	32gg\	.	.	.	.	.	.	.	.	.	.	.	.	.
.	32ccc\JJJ	.	.	.	.	.	.	.	.	.	.	.	.	.
32r	16eee\	.	8g/ 8b-/	.	8ee\	.	8C/	-mi-	8c\	-mi-	.	.	.	.
32C/LLL	.	.	.	.	.	.	.	.	.	.	.	.	.	.
32E\	16r	.	.	.	.	.	.	.	.	.	32a\LLL	-mi-	32ff\LLL	-mi-
32G\JJJ	.	.	.	.	.	.	.	.	.	.	32b-\JJJ	.	32gg\JJJ	.
=73	=73	=73	=73	=73	=73	=73	=73	=73	=73	=73	=73	=73	=73	=73
!	!	!	!	!	!	!	!LO:PB:g=original	!	!LO:PB:g=original	!	!	!	!	!
32c\LLL	8r	4c\	8r	.	8r	.	8F\	-ni	8c\	-ni	8a\	-ni	8ff\	-ni
32F\	.	.	.	.	.	.	.	.	.	.	.	.	.	.
32A\	.	.	.	.	.	.	.	.	.	.	.	.	.	.
32c\JJJ	.	.	.	.	.	.	.	.	.	.	.	.	.	.
!	!	!	!	!	!	!	!LO:TX:a:t=P:problem= niejednoznacznośc w podłożeniu tekstu	!	!	!	!	!	!	!
16f\	32r	.	8f/ 8a/	.	8ff\	.	8c\	in	(>8c\	in	8a\	in	8ff\	in
.	32a/LLL	.	.	.	.	.	.	.	.	.	.	.	.	.
16r	32cc\	.	.	.	.	.	.	.	.	.	.	.	.	.
.	32ff\JJJ	.	.	.	.	.	.	.	.	.	.	.	.	.
*clefG2	*	*	*	*	*	*	*	*	*	*	*	*	*	*
32r	32aa\LLL	8A/)	8r	.	8r	.	8A\	.	4c\	no-	[4f\	no-	(>4ff\	no-
32f/LLL	32ff\	.	.	.	.	.	.	.	.	.	.	.	.	.
32a/	32aa\	.	.	.	.	.	.	.	.	.	.	.	.	.
32cc\JJJ	32ccc\JJJ	.	.	.	.	.	.	.	.	.	.	.	.	.
16ff\	16fff\	8r	8cc\	.	8ff\	.	16F\	no-	.	.	.	.	.	.
16r	16r	.	.	.	.	.	16A\	.	.	.	.	.	.	.
*clefF4	*	*	*	*	*	*	*	*	*	*	*	*	*	*
=74	=74	=74	=74	=74	=74	=74	=74	=74	=74	=74	=74	=74	=74	=74
!	!	!	!	!	!	!	!	!	!	!	!	!	!LO:PB:g=original	!
8B-\L	2r	8B-/	8r	.	8r	.	8B-\	.	8d\)	.	8f\]	.	16ff\LL	.
.	.	.	.	.	.	.	.	.	.	.	.	.	16dd\JJ)	.
!LO:TX:t=P:problem=mixed beam	!	!	!	!	!	!	!	!	!	!	!	!	!	!
8BB-/	.	8r	8b-\	.	8dd\	.	16BB-/	-mi-	16d\	-mi-	16f\	-mi-	16b-\	-mi-
.	.	.	.	.	.	.	16BB-/	-ne	16B-\	-ne	16f\	-ne	16g\	-ne
8C/	.	8cL/	16r	.	16r	.	8C/	Do-	8A\	Do-	8f\	Do-	8f/	Do-
.	.	.	16a/	.	16cc\	.	.	.	.	.	.	.	.	.
8C/J	.	8c\J	16r	.	16r	.	8C/	-mi-	8B-\	-mi-	8e\	-mi-	16.a\LL	-mi-
.	.	.	16g/ 16b-/	.	16ee\	.	.	.	.	.	.	.	.	.
.	.	.	.	.	.	.	.	.	.	.	.	.	32g\JJk	.
=75	=75	=75	=75	=75	=75	=75	=75	=75	=75	=75	=75	=75	=75	=75
!LO:PL:g=original	!	!	!	!	!	!	!	!	!	!	!LO:PB:g=original	!	!	!
4F\	8r	8F/	8f/	.	8ff\	.	8F\	-ni	8A\	-ni	8f\	-ni	8f/	-ni
.	[8ccc\	8r	8r	.	8r	.	8r	.	8r	.	8r	.	8r	.
4r	16ccc\LL]	4r	4r	.	4r	.	4r	.	4r	.	4r	.	4r	.
.	16fff\	.	.	.	.	.	.	.	.	.	.	.	.	.
.	(>16aa\	.	.	.	.	.	.	.	.	.	.	.	.	.
.	32ddd\L	.	.	.	.	.	.	.	.	.	.	.	.	.
.	32ccc\JJJ)	.	.	.	.	.	.	.	.	.	.	.	.	.
*clefG2	*	*	*	*	*	*	*	*	*	*	*	*	*	*
=76	=76	=76	=76	=76	=76	=76	=76	=76	=76	=76	=76	=76	=76	=76
!	!	!LO:PB:g=original	!LO:PB:g=original	!	!	!	!	!	!	!	!	!	!	!
16c/LL	8.ff\LsSS	2c/	4f/	.	(<4c/ 4a/	.	4r	.	4r	.	4r	.	4r	.
16f/	.	.	.	.	.	.	.	.	.	.	.	.	.	.
16a/	.	.	.	.	.	.	.	.	.	.	.	.	.	.
16f/JJ	16aa\Jk	.	.	.	.	.	.	.	.	.	.	.	.	.
16c/LL	16gg\LL	.	4g/	.	4c/) 4b-/	.	8r	.	8r	.	8r	.	8r	.
16g/	16cc\	.	.	.	.	.	.	.	.	.	.	.	.	.
16b-\	16dd\	.	.	.	.	.	16C/	Be-	16c\	Be-	16g\	Be-	16b-\	Be-
16g/JJ	16ee\JJ	.	.	.	.	.	16C/	-ne-	16c\	-ne-	16g\	-ne-	16b-\	-ne-
=77	=77	=77	=77	=77	=77	=77	=77	=77	=77	=77	=77	=77	=77	=77
16f/LL	8ff\	4.F/	4.f/	.	4.c/ 4.a/	.	8F\	-dic-	8c\	-dic-	8f\	-dic-	8a\	-dic-
16a/	.	.	.	.	.	.	.	.	.	.	.	.	.	.
16cc\	[8ccc\	.	.	.	.	.	16F\	-tus	16c\	-tus	16f\	-tus	16a\	-tus
16a/JJ	.	.	.	.	.	.	16r	.	16r	.	16r	.	16r	.
8f/	16ccc\LL]	.	.	.	.	.	4r	.	4r	.	4r	.	4r	.
.	(>16fff\	.	.	.	.	.	.	.	.	.	.	.	.	.
8r	16aa\	8r	8r	.	8r	.	.	.	.	.	.	.	.	.
.	32ddd\L	.	.	.	.	.	.	.	.	.	.	.	.	.
.	32ccc\JJJ	.	.	.	.	.	.	.	.	.	.	.	.	.
=78	=78	=78	=78	=78	=78	=78	=78	=78	=78	=78	=78	=78	=78	=78
!	!	!	!	!	!	!	!	!	!LO:PB:g=original	!	!	!	!	!
16c/LL	8.ff\LsSS)	(<2c/	4f/	.	(<4c/ 4a/	.	4r	.	4r	.	4r	.	4r	.
16f/	.	.	.	.	.	.	.	.	.	.	.	.	.	.
16a/	.	.	.	.	.	.	.	.	.	.	.	.	.	.
16f/JJ	16aa\Jk	.	.	.	.	.	.	.	.	.	.	.	.	.
16c/LL	16gg\LL	.	4g/	.	4c/) 4b-/	.	8r	.	8r	.	8r	.	8r	.
16g/	16cc\	.	.	.	.	.	.	.	.	.	.	.	.	.
16b-\	16dd\	.	.	.	.	.	8C/	qui	8c\	qui	8g\	qui	8b-\	qui
16g/JJ	16ee\JJ	.	.	.	.	.	.	.	.	.	.	.	.	.
=79	=79	=79	=79	=79	=79	=79	=79	=79	=79	=79	=79	=79	=79	=79
*clefF4	*	*	*	*	*	*	*	*	*	*	*	*	*	*
!	!	!	!	!	!	!	!LO:PB:g=original	!	!	!	!	!	!	!
16F\LL	8ff\	4F/)	4f/	.	4c/ 4a/	.	8F\	ve-	8c\	ve-	8f\	ve-	8a\	ve-
16A\	.	.	.	.	.	.	.	.	.	.	.	.	.	.
.	32qqee/LLL	.	.	.	.	.	.	.	.	.	.	.	.	.
.	32qqff/	.	.	.	.	.	.	.	.	.	.	.	.	.
.	32qqgg/JJJ	.	.	.	.	.	.	.	.	.	.	.	.	.
16c\	16ff\LL	.	.	.	.	.	16F\	-nit	16c\	-nit	16f\	-nit	16a\	-nit
16A\JJ	16ee\JJ	.	.	.	.	.	16r	.	16r	.	16r	.	16r	.
8F\	16dd\LL	4r	4r	.	4r	.	4r	.	4r	.	4r	.	4r	.
.	16cc\	.	.	.	.	.	.	.	.	.	.	.	.	.
8r	16b-\	.	.	.	.	.	.	.	.	.	.	.	.	.
.	16a/JJ	.	.	.	.	.	.	.	.	.	.	.	.	.
=80	=80	=80	=80	=80	=80	=80	=80	=80	=80	=80	=80	=80	=80	=80
16BB-/LL	8g/	2r	2r	.	2r	.	4r	.	4r	.	4r	.	4r	.
16D\	.	.	.	.	.	.	.	.	.	.	.	.	.	.
16G\	8b-/	.	.	.	.	.	.	.	.	.	.	.	.	.
16D\JJ	.	.	.	.	.	.	.	.	.	.	.	.	.	.
8BB-\	(>16b-\LL	.	.	.	.	.	4BB-/	in	4B-\^	in	(>4d\	in	4g^>/	in
.	16dd\	.	.	.	.	.	.	.	.	.	.	.	.	.
8r	16g/	.	.	.	.	.	.	.	.	.	.	.	.	.
.	32gg\L	.	.	.	.	.	.	.	.	.	.	.	.	.
.	32ff\JJJ)	.	.	.	.	.	.	.	.	.	.	.	.	.
=81	=81	=81	=81	=81	=81	=81	=81	=81	=81	=81	=81	=81	=81	=81
!	!	!	!	!	!	!	!	!	!	!	!	!	!LO:PB:g=original	!
16C/LL	16cc\LL	2r	2r	.	2r	.	8C/	no-	8A\	no-	8c\)	no-	8f/	no-
16F\	32aa\L	.	.	.	.	.	.	.	.	.	.	.	.	.
.	32ff\JJJ	.	.	.	.	.	.	.	.	.	.	.	.	.
16A\	8cc\	.	.	.	.	.	16C/	-mi-	16c\	-mi-	16f\	-mi-	16a\	-mi-
16F\JJ	.	.	.	.	.	.	16C/	-ne	16c\	-ne	16f\	-ne	16a\	-ne
16C/LL	16ccc\LL	.	.	.	.	.	8C/	Do-	8.c\	Do-	8.e\	Do-	8.g/	Do-
16E\	16bbn\JJ	.	.	.	.	.	.	.	.	.	.	.	.	.
16G\	(>24bb-X\LL	.	.	.	.	.	8C/	-mi-	.	.	.	.	.	.
.	24aa\	.	.	.	.	.	.	.	.	.	.	.	.	.
16E\JJ	.	.	.	.	.	.	.	.	16B-\	-mi-	16e\	-mi-	16g/	-mi-
.	24gg\JJ)	.	.	.	.	.	.	.	.	.	.	.	.	.
=82	=82	=82	=82	=82	=82	=82	=82	=82	=82	=82	=82	=82	=82	=82
!LO:PB:g=original	!	!	!	!	!LO:PB:g=original	!	!	!	!	!	!	!	!	!
16F\LL	16ff\LL	2F/	4A/	.	4c/	.	8.F\	-ni	8.A\	-ni	8.f\	-ni	8.f/	-ni
16A\	16cc\JJ	.	.	.	.	.	.	.	.	.	.	.	.	.
16c\	32aa\LLL	.	.	.	.	.	.	.	.	.	.	.	.	.
.	32gg\	.	.	.	.	.	.	.	.	.	.	.	.	.
16A\JJ	32ff\	.	.	.	.	.	16r	.	16r	.	16r	.	16r	.
.	32ee\JJJ	.	.	.	.	.	.	.	.	.	.	.	.	.
16F\LL	32dd\LLL	.	4B-/	.	4d/	.	4r	.	4r	.	4r	.	4r	.
.	32ddd\	.	.	.	.	.	.	.	.	.	.	.	.	.
16B-\	32bb-\	.	.	.	.	.	.	.	.	.	.	.	.	.
.	32ff\JJJ	.	.	.	.	.	.	.	.	.	.	.	.	.
16d\	32dd\LLL	.	.	.	.	.	.	.	.	.	.	.	.	.
.	32bb-\	.	.	.	.	.	.	.	.	.	.	.	.	.
16B-\JJ	32ff\	.	.	.	.	.	.	.	.	.	.	.	.	.
.	32dd\JJJ	.	.	.	.	.	.	.	.	.	.	.	.	.
=83	=83	=83	=83	=83	=83	=83	=83	=83	=83	=83	=83	=83	=83	=83
16F\LL	32r	2F/	4A/	.	4c/	.	2r	.	2r	.	2r	.	2r	.
.	32ccc\LLL	.	.	.	.	.	.	.	.	.	.	.	.	.
16A\	32aa\	.	.	.	.	.	.	.	.	.	.	.	.	.
.	32ff\JJJ	.	.	.	.	.	.	.	.	.	.	.	.	.
16c\	32cc\LLL	.	.	.	.	.	.	.	.	.	.	.	.	.
.	32aa\	.	.	.	.	.	.	.	.	.	.	.	.	.
16A\JJ	32ff\	.	.	.	.	.	.	.	.	.	.	.	.	.
.	32cc\JJJ	.	.	.	.	.	.	.	.	.	.	.	.	.
16F\LL	32r	.	4B-/	.	4d/	.	.	.	.	.	.	.	.	.
.	32ddd\LLL	.	.	.	.	.	.	.	.	.	.	.	.	.
16B-\	32bb-\	.	.	.	.	.	.	.	.	.	.	.	.	.
.	32ff\JJJ	.	.	.	.	.	.	.	.	.	.	.	.	.
16d\	32dd\LLL	.	.	.	.	.	.	.	.	.	.	.	.	.
.	32bb-\	.	.	.	.	.	.	.	.	.	.	.	.	.
16B-\JJ	32ff\	.	.	.	.	.	.	.	.	.	.	.	.	.
.	32dd\JJJ	.	.	.	.	.	.	.	.	.	.	.	.	.
=84	=84	=84	=84	=84	=84	=84	=84	=84	=84	=84	=84	=84	=84	=84
!LO:PB:g=original	!	!	!LO:PB:g=original	!	!	!	!	!	!	!	!	!	!	!
16F\LL	32r	2F/	2A/	.	2c/	.	2r	.	2r	.	2r	.	2r	.
.	32ccc\LLL	.	.	.	.	.	.	.	.	.	.	.	.	.
16A\	32aa\	.	.	.	.	.	.	.	.	.	.	.	.	.
.	32ff\JJJ	.	.	.	.	.	.	.	.	.	.	.	.	.
16c\	32cc\LLL	.	.	.	.	.	.	.	.	.	.	.	.	.
.	32aa\	.	.	.	.	.	.	.	.	.	.	.	.	.
16A\JJ	32ff\	.	.	.	.	.	.	.	.	.	.	.	.	.
.	32cc\JJJ	.	.	.	.	.	.	.	.	.	.	.	.	.
16E-X\LL	16a/LL	.	.	.	.	.	.	.	.	.	.	.	.	.
16F\	32fff\L	.	.	.	.	.	.	.	.	.	.	.	.	.
.	32eee-X\JJJ	.	.	.	.	.	.	.	.	.	.	.	.	.
16c\	32ddd\LLL	.	.	.	.	.	.	.	.	.	.	.	.	.
.	32ccc\	.	.	.	.	.	.	.	.	.	.	.	.	.
16F\JJ	32bb-\	.	.	.	.	.	.	.	.	.	.	.	.	.
.	32aa\JJJ	.	.	.	.	.	.	.	.	.	.	.	.	.
=85	=85	=85	=85	=85	=85	=85	=85	=85	=85	=85	=85	=85	=85	=85
16D\LL	8bb-\L	4F/	4B-/	.	2f/	.	2r	.	2r	.	2r	.	2r	.
16F\	.	.	.	.	.	.	.	.	.	.	.	.	.	.
16B-\	16aa\L	.	.	.	.	.	.	.	.	.	.	.	.	.
16F\JJ	16bb-\JJ	.	.	.	.	.	.	.	.	.	.	.	.	.
16D-X\LL	4bbn\t	4D-X/	4Bn/	.	.	.	.	.	.	.	.	.	.	.
16F\	.	.	.	.	.	.	.	.	.	.	.	.	.	.
16A-X\	.	.	.	.	.	.	.	.	.	.	.	.	.	.
16F\JJ	.	.	.	.	.	.	.	.	.	.	.	.	.	.
.	16qqaa/LL	.	.	.	.	.	.	.	.	.	.	.	.	.
.	16qqbb/JJ	.	.	.	.	.	.	.	.	.	.	.	.	.
=86	=86	=86	=86	=86	=86	=86	=86	=86	=86	=86	=86	=86	=86	=86
!LO:PB:g=original	!	!LO:PB:g=original	!	!	!	!	!	!	!	!	!	!	!	!
16C/LL	16ccc\LL	4C/	8r	.	8r	.	2r	.	2r	.	2r	.	2r	.
16F\	16aa\J	.	.	.	.	.	.	.	.	.	.	.	.	.
16An\	8fff\J	.	8c/L	.	8a/L	.	.	.	.	.	.	.	.	.
16F\JJ	.	.	.	.	.	.	.	.	.	.	.	.	.	.
16C/LL	32fff\LLL	4r	8c/	.	8a/	.	.	.	.	.	.	.	.	.
.	32eee\	.	.	.	.	.	.	.	.	.	.	.	.	.
16F\	32ddd\	.	.	.	.	.	.	.	.	.	.	.	.	.
.	32ccc\JJJ	.	.	.	.	.	.	.	.	.	.	.	.	.
16A\	32bb-\LLL	.	8c/J	.	8a/J	.	.	.	.	.	.	.	.	.
.	32aa\	.	.	.	.	.	.	.	.	.	.	.	.	.
16F\JJ	32gg\	.	.	.	.	.	.	.	.	.	.	.	.	.
.	32ff\JJJ	.	.	.	.	.	.	.	.	.	.	.	.	.
=87	=87	=87	=87	=87	=87	=87	=87	=87	=87	=87	=87	=87	=87	=87
16C/LL	32ee\LLL	4C/	8r	.	8r	.	2r	.	2r	.	2r	.	2r	.
.	32gg\	.	.	.	.	.	.	.	.	.	.	.	.	.
16G\	32bb-\	.	.	.	.	.	.	.	.	.	.	.	.	.
.	32ddd\JJJ	.	.	.	.	.	.	.	.	.	.	.	.	.
16B-\	4ccc\	.	8B-/L	.	8g/L	.	.	.	.	.	.	.	.	.
16G\JJ	.	.	.	.	.	.	.	.	.	.	.	.	.	.
16C/LL	.	4r	8B-/	.	8g/	.	.	.	.	.	.	.	.	.
16G\	.	.	.	.	.	.	.	.	.	.	.	.	.	.
16B-\	8ee\	.	8B-/J	.	8g/J	.	.	.	.	.	.	.	.	.
16G\JJ	.	.	.	.	.	.	.	.	.	.	.	.	.	.
=88	=88	=88	=88	=88	=88	=88	=88	=88	=88	=88	=88	=88	=88	=88
16F\LL	8.ff\L	4F/	4A/	.	4f/	.	2r	.	2r	.	2r	.	2r	.
16A\	.	.	.	.	.	.	.	.	.	.	.	.	.	.
16c\	.	.	.	.	.	.	.	.	.	.	.	.	.	.
16A\JJ	32ee\LL	.	.	.	.	.	.	.	.	.	.	.	.	.
.	32ff\JJJ	.	.	.	.	.	.	.	.	.	.	.	.	.
16E\LL	(>8.gg\L	4r	4r	.	4r	.	.	.	.	.	.	.	.	.
16G\	.	.	.	.	.	.	.	.	.	.	.	.	.	.
16c\	.	.	.	.	.	.	.	.	.	.	.	.	.	.
16G\JJ	32ff#X\LL	.	.	.	.	.	.	.	.	.	.	.	.	.
.	32gg\JJJ)	.	.	.	.	.	.	.	.	.	.	.	.	.
=89	=89	=89	=89	=89	=89	=89	=89	=89	=89	=89	=89	=89	=89	=89
!LO:PB:g=original	!	!	!	!	!	!	!	!	!	!	!	!	!	!
16D\LL	8.aa\t	2r	2r	.	2r	.	2r	.	2r	.	2r	.	2r	.
16F\	.	.	.	.	.	.	.	.	.	.	.	.	.	.
16A\	.	.	.	.	.	.	.	.	.	.	.	.	.	.
16F\JJ	32gg\LLL	.	.	.	.	.	.	.	.	.	.	.	.	.
.	32aa\JJJ	.	.	.	.	.	.	.	.	.	.	.	.	.
16D\LL	(>8.bbn\t	.	.	.	.	.	.	.	.	.	.	.	.	.
16F\	.	.	.	.	.	.	.	.	.	.	.	.	.	.
16G\	.	.	.	.	.	.	.	.	.	.	.	.	.	.
16F\JJ	32aa\LLL	.	.	.	.	.	.	.	.	.	.	.	.	.
.	32bb\JJJ)	.	.	.	.	.	.	.	.	.	.	.	.	.
==90	==90	==90	==90	==90	==90	==90	==90	==90	==90	==90	==90	==90	==90	==90
*M4/4	*M4/4	*M4/4	*M4/4	*	*M4/4	*	*	*	*	*	*	*	*	*
*met(c)	*met(c)	*met(c)	*met(c)	*	*met(c)	*	*	*	*	*	*	*	*	*
*k[bn]	*k[bn]	*k[bn]	*k[bn]	*	*k[bn]	*	*	*	*	*	*	*	*	*
2C/ 2E/ 2c/	2ccc\	1r	1r	1r	1r	1r	2r	.	1r	.	2.r	.	1r	.
2e\	2r	.	.	.	.	.	2E\	O.	.	.	.	.	.	.
!	!	!LO:TX:i:t=Allegro	!	!	!	!	!	!	!	!	!	!	!	!
.	.	.	.	.	.	.	.	.	.	.	.	.	.	.
!LO:TX:i:t= Dal Segno Ossanna.	!	!LO:TX:i:t=Dal Segno	!LO:TX:i:t=Dal Segno.	!	!LO:TX:i:t=Dal Segno	!	!	!	!	!	!	!	!	!
.	.	.	.	.	.	.	.	.	.	.	4g\	O.	.	.
==	==	==	==	==	==	==	==	==	==	==	==	==	==	==
*-	*-	*-	*-	*-	*-	*-	*-	*-	*-	*-	*-	*-	*-	*-
!!!system-decoration: [(s1,s2,s3,s4)][(s5,s6,s7)]{(s8,s9)}
!!!RDF**kern: > = above
!!!RDF**kern: < = below
!!!ENC: Andrzej Borzym
!!!END: 2020-01-27
!!!ENC: Leszek Kubiak
!!!END: 2020-03-02
!!!YEC: Copyright 2022 Narodowy Instytut Fryderyka Chopina (https://polishscores.org)
!!!YEM: License CC-BY-4.0 (https://creativecommons.org/licenses/by/4.0)
